; generated by PrusaSlicer 2.5.2+win64 on 2023-05-12 at 06:11:54 UTC


;
;
; 

; external perimeters extrusion width = 0.45mm
; perimeters extrusion width = 0.45mm
; infill extrusion width = 0.45mm
; solid infill extrusion width = 0.45mm
; top infill extrusion width = 0.40mm
; first layer extrusion width = 0.42mm

M73 P0 R74
M73 Q0 S74
M201 X1000 Y1000 Z200 E5000 ; sets maximum accelerations, mm/sec^2
M203 X200 Y200 Z12 E120 ; sets maximum feedrates, mm / sec
M204 P1250 R1250 T1250 ; sets acceleration (P, T) and retract acceleration (R), mm/sec^2
M205 X8.00 Y8.00 Z0.40 E4.50 ; sets the jerk limits, mm/sec
M205 S0 T0 ; sets the minimum extruding and travel feed rate, mm/sec
M107
;TYPE:Custom
M862.3 P "MK3S" ; printer model check
M862.1 P0.4 ; nozzle diameter check
M115 U3.12.2 ; tell printer latest fw version
G90 ; use absolute coordinates
M83 ; extruder relative mode
M104 S215 ; set extruder temp
M140 S60 ; set bed temp
M190 S60 ; wait for bed temp
M109 S215 ; wait for extruder temp
G28 W ; home all without mesh bed level
G80 ; mesh bed leveling

G1 Z0.2 F720
G1 Y-3 F1000 ; go outside print area
G92 E0
G1 X60 E9 F1000 ; intro line
G1 X100 E12.5 F1000 ; intro line

G92 E0
M221 S95

; Don't change E values below. Excessive value can damage the printer.
M907 E430 ; set extruder motor current
G21 ; set units to millimeters
G90 ; use absolute coordinates
M83 ; use relative distances for extrusion
M900 K0.05 ; Filament gcode LA 1.5
M900 K30 ; Filament gcode LA 1.0
M107
;LAYER_CHANGE
;Z:0.2
;HEIGHT:0.2
;BEFORE_LAYER_CHANGE
G92 E0.0
;0.2


G1 E-.8 F2100
G1 Z.4 F720
;AFTER_LAYER_CHANGE
;0.2
G1 X105.24 Y92.895 F10800
G1 Z.2 F720
G1 E.8 F2100
M204 S800
;TYPE:Skirt/Brim
;WIDTH:0.42
G1 F1200
G1 X106.672 Y91.891 E.05486
G1 X137.222 Y84.581 E.98491
G1 X137.775 Y84.516 E.01746
G1 X142.775 Y84.516 E.15677
G1 X144.082 Y84.907 E.04278
G1 X144.958 Y85.953 E.04278
G1 X145.152 Y86.893 E.03008
G1 X145.152 Y118.977 E1.00599
G1 X144.103 Y124.28 E.16949
G1 X143.454 Y125.481 E.04278
G1 X141.775 Y126.175 E.05695
G1 X120.775 Y126.175 E.65844
G1 X119.037 Y125.419 E.05943
G1 X109.226 Y114.882 E.45141
G1 X107.684 Y112.783 E.08167
G1 X106.445 Y110.468 E.08231
G1 X105.952 Y109.246 E.04132
G1 X105.285 Y106.956 E.07479
G1 X105.028 Y105.543 E.04505
G1 X104.893 Y104.27 E.04014
G1 X104.848 Y94.203 E.31565
G1 X105.222 Y92.953 E.0409
M204 S1000
; printing object side_straing_gauge_bracket v1.stl id:0 copy 0
;WIPE_START
G1 F8640
G1 X106.672 Y91.891 E-.41496
G1 X108.125 Y91.543 E-.34504
;WIPE_END
G1 E-.04 F2100
G1 Z.6 F720
G1 X136.55 Y118.725 F10800
G1 Z.2 F720
G1 E.8 F2100
M204 S800
;TYPE:Perimeter
;WIDTH:0.419999
G1 F1200
G1 X136.548 Y118.629 E.00302
G1 X136.462 Y118.434 E.00667
G1 X136.255 Y118.253 E.00861
G1 X135.996 Y118.19 E.00835
G1 X126.942 Y118.19 E.28389
G1 X126.411 Y118.209 E.01665
G1 X126.127 Y118.384 E.01047
G1 X126.057 Y118.486 E.00387
G1 X125.988 Y118.756 E.00875
G1 X125.988 Y121.41 E.08323
G1 X122.554 Y121.41 E.10768
G1 X122.214 Y121.524 E.01122
;WIDTH:0.444381
G1 X121.976 Y121.976 E.01707
G1 X121.976 Y122.998 E.03412
G1 X121.574 Y122.998 E.0134
G1 X121.562 Y121.198 E.06011
;WIDTH:0.419999
G1 X121.547 Y118.474 E.0854
G1 X121.444 Y118.259 E.00746
G1 X121.229 Y118.09 E.00858
G1 X121.103 Y118.05 E.00414
G1 X119.838 Y117.808 E.04038
G1 X118.796 Y117.531 E.03379
G1 X117.777 Y117.181 E.03381
G1 X116.785 Y116.76 E.03377
G1 X115.826 Y116.269 E.03379
G1 X114.903 Y115.712 E.03379
G1 X114.023 Y115.091 E.03379
G1 X113.188 Y114.409 E.03379
G1 X112.404 Y113.67 E.03379
G1 X111.674 Y112.877 E.0338
G1 X111.002 Y112.034 E.03378
G1 X110.392 Y111.146 E.03379
G1 X109.846 Y110.217 E.03379
G1 X109.367 Y109.252 E.03379
G1 X108.957 Y108.254 E.03381
G1 X108.619 Y107.231 E.03378
G1 X108.355 Y106.187 E.03377
G1 X108.165 Y105.125 E.03382
G1 X108.051 Y104.055 E.03376
M73 P0 R73
G1 X108.012 Y102.964 E.03423
G1 X108.012 Y94.99 E.25002
G1 X111.438 Y94.99 E.10742
G1 X111.438 Y101.215 E.19519
G1 X111.481 Y102.274 E.03324
G1 X111.651 Y103.562 E.04074
G1 X111.839 Y104.475 E.02921
G1 X112.131 Y105.48 E.03284
G1 X112.323 Y105.991 E.0171
G1 X112.615 Y106.714 E.02444
G1 X113 Y107.52 E.02802
G1 X113.523 Y108.426 E.0328
G1 X113.826 Y108.87 E.01685
G1 X114.272 Y109.49 E.02395
G1 X114.864 Y110.213 E.02928
G1 X115.39 Y110.761 E.02382
G1 X115.944 Y111.284 E.0239
G1 X116.522 Y111.783 E.02394
G1 X117.315 Y112.377 E.03105
G1 X117.913 Y112.755 E.02219
G1 X118.581 Y113.138 E.02414
G1 X119.27 Y113.491 E.02428
G1 X120.212 Y113.891 E.0321
G1 X121.249 Y114.235 E.03424
G1 X122.31 Y114.495 E.03424
G1 X123.388 Y114.668 E.03424
G1 X124.477 Y114.754 E.03424
G1 X125.523 Y114.754 E.03282
G1 X126.657 Y114.663 E.03567
G1 X127.735 Y114.486 E.03424
G1 X128.751 Y114.235 E.03282
G1 X129.83 Y113.875 E.03567
G1 X130.834 Y113.445 E.03424
G1 X131.761 Y112.959 E.03282
G1 X132.685 Y112.377 E.03424
G1 X133.595 Y111.693 E.03567
G1 X134.409 Y110.969 E.03417
G1 X135.136 Y110.213 E.03289
G1 X135.856 Y109.331 E.03567
G1 X136.474 Y108.432 E.03424
G1 X137.019 Y107.485 E.03424
G1 X137.468 Y106.539 E.03282
G1 X137.871 Y105.476 E.03567
G1 X138.173 Y104.426 E.03424
G1 X138.383 Y103.4 E.03285
G1 X138.516 Y102.311 E.03438
G1 X138.562 Y101.207 E.03466
G1 X138.562 Y88.396 E.40166
G1 X141.988 Y88.396 E.10741
G1 X141.988 Y90.109 E.05371
G1 X141.988 Y118.19 E.88046
G1 X141.554 Y118.19 E.01362
G1 X141.259 Y118.273 E.00958
G1 X141.138 Y118.373 E.00493
G1 X141.04 Y118.519 E.00553
G1 X140.988 Y118.756 E.0076
G1 X140.988 Y121.198 E.07655
;WIDTH:0.444381
G1 X140.976 Y122.998 E.06011
G1 X140.574 Y122.998 E.0134
G1 X140.574 Y121.976 E.03412
G1 X140.336 Y121.524 E.01707
;WIDTH:0.419999
G1 X139.996 Y121.41 E.01122
G1 X136.562 Y121.41 E.10768
G1 X136.552 Y118.785 E.08231
M204 S1000
G1 X136.185 Y118.756 F10800
M204 S800
;TYPE:External perimeter
G1 F1200
G1 X136.135 Y118.628 E.0043
G1 X135.999 Y118.568 E.00467
G1 X126.554 Y118.568 E.29616
G1 X126.411 Y118.632 E.00489
G1 X126.365 Y118.756 E.00415
G1 X126.365 Y121.788 E.09505
G1 X122.554 Y121.788 E.11951
G1 X122.44 Y121.825 E.00374
G1 X122.365 Y121.976 E.00529
G1 X122.365 Y123.388 E.04426
G1 X121.185 Y123.388 E.037
G1 X121.185 Y119.198 E.13137
G1 X121.167 Y118.525 E.0211
G1 X121.032 Y118.421 E.00534
G1 X119.754 Y118.176 E.0408
G1 X118.687 Y117.892 E.03463
G1 X117.641 Y117.533 E.03465
G1 X116.626 Y117.102 E.03461
G1 X115.642 Y116.599 E.03463
G1 X114.697 Y116.028 E.03463
G1 X113.794 Y115.391 E.03463
G1 X112.939 Y114.693 E.03463
G1 X112.136 Y113.935 E.03463
G1 X111.387 Y113.122 E.03464
G1 X110.699 Y112.259 E.03462
G1 X110.074 Y111.349 E.03463
G1 X109.514 Y110.397 E.03463
G1 X109.023 Y109.407 E.03463
G1 X108.603 Y108.385 E.03465
G1 X108.257 Y107.337 E.03462
G1 X107.986 Y106.267 E.03461
G1 X107.791 Y105.179 E.03466
G1 X107.674 Y104.081 E.0346
G1 X107.635 Y102.97 E.03486
G1 X107.635 Y94.612 E.26205
G1 X111.815 Y94.612 E.13106
G1 X111.815 Y101.222 E.20725
G1 X111.857 Y102.259 E.03252
G1 X111.907 Y102.674 E.01312
G1 X112.021 Y103.487 E.02573
G1 X112.201 Y104.37 E.02825
G1 X112.493 Y105.375 E.03284
G1 X112.675 Y105.857 E.01614
G1 X112.956 Y106.552 E.0235
G1 X113.326 Y107.332 E.02707
G1 X113.848 Y108.235 E.03271
G1 X114.564 Y109.252 E.03899
G1 X115.136 Y109.951 E.02833
G1 X115.662 Y110.499 E.02382
G1 X116.194 Y111.002 E.02294
G1 X116.748 Y111.482 E.02299
G1 X117.516 Y112.058 E.0301
G1 X118.114 Y112.436 E.02219
G1 X118.756 Y112.804 E.02319
G1 X119.417 Y113.145 E.02332
G1 X120.332 Y113.533 E.03115
G1 X121.339 Y113.869 E.03329
G1 X122.37 Y114.123 E.03329
G1 X123.403 Y114.29 E.03282
G1 X124.477 Y114.377 E.03377
G1 X125.523 Y114.377 E.03282
G1 X125.794 Y114.356 E.0085
G1 X126.597 Y114.29 E.02527
G1 X127.63 Y114.123 E.03282
G1 X128.676 Y113.865 E.03377
G1 X129.683 Y113.528 E.03329
G1 X130.659 Y113.111 E.03329
G1 X131.586 Y112.625 E.03282
G1 X132.496 Y112.049 E.03377
G1 X133.343 Y111.413 E.03321
G1 X134.128 Y110.717 E.0329
G1 X134.874 Y109.94 E.03377
G1 X135.545 Y109.117 E.03329
G1 X136.14 Y108.256 E.03282
G1 X136.671 Y107.337 E.03329
G1 X137.133 Y106.364 E.03377
G1 X137.504 Y105.385 E.03282
G1 X137.8 Y104.365 E.03329
G1 X138.016 Y103.309 E.0338
G1 X138.143 Y102.251 E.03342
G1 X138.185 Y101.207 E.03276
G1 X138.185 Y88.019 E.41349
G1 X142.365 Y88.019 E.13106
G1 X142.365 Y118.568 E.95781
G1 X141.554 Y118.568 E.02544
G1 X141.415 Y118.628 E.00475
G1 X141.365 Y118.756 E.0043
G1 X141.365 Y123.388 E.14522
G1 X140.185 Y123.388 E.037
G1 X140.185 Y121.976 E.04426
G1 X140.11 Y121.825 E.00529
G1 X139.996 Y121.788 E.00374
G1 X136.185 Y121.788 E.11951
G1 X136.185 Y118.816 E.09317
M204 S1000
G1 X136.251 Y118.636 F10800
;WIPE_START
G1 F8640
G1 X136.135 Y118.628 E-.04486
G1 X135.999 Y118.568 E-.03437
G1 X133.051 Y118.568 E-.68077
;WIPE_END
G1 E-.04 F2100
G1 Z.6 F720
G1 X141.049 Y88.566 F10800
G1 Z.2 F720
G1 E.8 F2100
M204 S800
;TYPE:Solid infill
;WIDTH:0.423372
G1 F1200
G1 X141.649 Y89.166 E.02683
G1 X141.649 Y89.704 E.01702
G1 X140.68 Y88.736 E.04331
G1 X140.142 Y88.736 E.01702
G1 X141.649 Y90.242 E.06738
G1 X141.649 Y90.78 E.01702
G1 X139.604 Y88.736 E.09145
G1 X139.066 Y88.736 E.01702
G1 X141.649 Y91.318 E.11552
G1 X141.649 Y91.856 E.01702
G1 X138.901 Y89.109 E.1229
G1 X138.901 Y89.647 E.01702
G1 X141.649 Y92.394 E.1229
G1 X141.649 Y92.932 E.01702
G1 X138.901 Y90.185 E.1229
G1 X138.901 Y90.723 E.01702
G1 X141.649 Y93.47 E.1229
G1 X141.649 Y94.008 E.01702
G1 X138.901 Y91.261 E.1229
G1 X138.901 Y91.799 E.01702
G1 X141.649 Y94.546 E.1229
G1 X141.649 Y95.084 E.01702
G1 X138.901 Y92.337 E.1229
G1 X138.901 Y92.875 E.01702
G1 X141.649 Y95.622 E.1229
G1 X141.649 Y96.16 E.01702
G1 X138.901 Y93.413 E.1229
G1 X138.901 Y93.951 E.01702
G1 X141.649 Y96.698 E.1229
G1 X141.649 Y97.236 E.01702
G1 X138.901 Y94.489 E.1229
G1 X138.901 Y95.027 E.01702
G1 X141.649 Y97.774 E.1229
G1 X141.649 Y98.313 E.01702
G1 X138.901 Y95.565 E.1229
G1 X138.901 Y96.103 E.01702
G1 X141.649 Y98.851 E.1229
G1 X141.649 Y99.389 E.01702
G1 X138.901 Y96.641 E.1229
G1 X138.901 Y97.18 E.01702
G1 X141.649 Y99.927 E.1229
G1 X141.649 Y100.465 E.01702
G1 X138.901 Y97.718 E.1229
G1 X138.901 Y98.256 E.01702
G1 X141.649 Y101.003 E.1229
G1 X141.649 Y101.541 E.01702
G1 X138.901 Y98.794 E.1229
G1 X138.901 Y99.332 E.01702
G1 X141.649 Y102.079 E.1229
G1 X141.649 Y102.617 E.01702
G1 X138.901 Y99.87 E.1229
G1 X138.901 Y100.408 E.01702
G1 X141.649 Y103.155 E.1229
G1 X141.649 Y103.693 E.01702
G1 X138.901 Y100.946 E.1229
G1 X138.89 Y101.473 E.01668
G1 X141.649 Y104.231 E.12339
G1 X141.649 Y104.769 E.01702
G1 X138.869 Y101.989 E.12436
G1 X138.836 Y102.494 E.01601
G1 X141.649 Y105.307 E.12584
G1 X141.649 Y105.845 E.01702
G1 X138.777 Y102.973 E.12849
G1 X138.718 Y103.452 E.01527
G1 X141.649 Y106.383 E.13113
G1 X141.649 Y106.921 E.01702
G1 X138.627 Y103.9 E.13518
G1 X138.536 Y104.346 E.01443
G1 X141.649 Y107.459 E.13926
G1 X141.649 Y107.997 E.01702
M73 Q0 S73
G1 X138.426 Y104.774 E.14419
G1 X138.306 Y105.192 E.01376
G1 X141.649 Y108.535 E.14956
G1 X141.649 Y109.073 E.01702
G1 X138.183 Y105.608 E.15504
G1 X138.035 Y105.998 E.0132
G1 X141.649 Y109.611 E.16166
G1 X141.649 Y110.149 E.01702
G1 X137.887 Y106.388 E.16827
G1 X137.733 Y106.772 E.01308
G1 X141.649 Y110.687 E.17519
G1 X141.649 Y111.225 E.01702
G1 X137.559 Y107.136 E.18296
G1 X137.385 Y107.5 E.01277
G1 X141.649 Y111.764 E.19074
G1 X141.649 Y112.302 E.01702
G1 X137.2 Y107.853 E.19902
G1 X137.002 Y108.193 E.01245
G1 X141.649 Y112.84 E.20786
G1 X141.649 Y113.378 E.01702
G1 X136.805 Y108.534 E.2167
G1 X136.593 Y108.86 E.0123
G1 X141.649 Y113.916 E.22619
G1 X141.649 Y114.454 E.01702
M73 Q1 S73
G1 X136.372 Y109.178 E.23605
G1 X136.152 Y109.495 E.01223
M73 P1 R73
G1 X141.649 Y114.992 E.2459
G1 X141.649 Y115.53 E.01702
G1 X135.916 Y109.797 E.25647
G1 X135.674 Y110.093 E.0121
G1 X141.649 Y116.068 E.26729
G1 X141.649 Y116.606 E.01702
G1 X135.432 Y110.389 E.27811
G1 X135.169 Y110.665 E.01204
G1 X141.649 Y117.144 E.28988
G1 X141.649 Y117.682 E.01702
G1 X134.906 Y110.939 E.30167
G1 X134.642 Y111.213 E.01204
G1 X141.335 Y117.907 E.29944
G1 X141.09 Y117.975 E.00805
G1 X140.967 Y118.076 E.00504
G1 X134.359 Y111.469 E.2956
G1 X134.074 Y111.722 E.01206
G1 X140.731 Y118.378 E.29779
G1 X140.671 Y118.553 E.00586
G1 X140.649 Y118.834 E.00891
G1 X133.787 Y111.973 E.30695
G1 X133.481 Y112.204 E.01215
G1 X140.649 Y119.372 E.32068
G1 X140.649 Y119.91 E.01702
G1 X133.174 Y112.436 E.3344
G1 X132.863 Y112.663 E.01218
G1 X140.649 Y120.448 E.34831
G1 X140.649 Y120.986 E.01702
G1 X132.534 Y112.872 E.36302
G1 X132.205 Y113.081 E.01233
G1 X140.282 Y121.158 E.36136
G1 X140.021 Y121.071 E.00872
G1 X139.657 Y121.071 E.01151
G1 X131.869 Y113.283 E.34844
G1 X131.516 Y113.468 E.01261
G1 X135.899 Y117.851 E.1961
G1 X136.218 Y117.878 E.01011
G1 X136.409 Y117.95 E.00647
G1 X136.545 Y118.035 E.00506
G1 X136.739 Y118.236 E.00885
G1 X136.82 Y118.378 E.00517
G1 X136.879 Y118.553 E.00586
G1 X136.901 Y118.853 E.00951
G1 X139.119 Y121.071 E.09922
G1 X138.581 Y121.071 E.01702
G1 X136.901 Y119.391 E.07515
G1 X136.901 Y119.929 E.01702
G1 X138.043 Y121.071 E.05108
G1 X137.505 Y121.071 E.01702
G1 X136.901 Y120.467 E.02701
G1 X136.901 Y121.005 E.01702
G1 X137.137 Y121.241 E.01053
M204 S1000
;WIPE_START
G1 F8640
G1 X136.901 Y121.005 E-.07683
G1 X136.901 Y120.467 E-.12423
G1 X137.505 Y121.071 E-.19712
G1 X138.043 Y121.071 E-.12423
G1 X137.316 Y120.344 E-.23758
;WIPE_END
G1 E-.04 F2100
G1 Z.6 F720
G1 X135.531 Y118.021 F10800
G1 Z.2 F720
G1 E.8 F2100
M204 S800
G1 F1200
G1 X131.163 Y113.653 E.1954
G1 X130.802 Y113.83 E.01272
G1 X134.823 Y117.851 E.1799
G1 X134.285 Y117.851 E.01702
G1 X130.425 Y113.991 E.17271
G1 X130.047 Y114.151 E.01297
G1 X133.747 Y117.851 E.16552
G1 X133.209 Y117.851 E.01702
G1 X129.651 Y114.293 E.15919
G1 X129.248 Y114.428 E.01344
G1 X132.671 Y117.851 E.15313
G1 X132.133 Y117.851 E.01702
G1 X128.842 Y114.56 E.14724
G1 X128.41 Y114.667 E.01406
G1 X131.595 Y117.851 E.14247
G1 X131.057 Y117.851 E.01702
G1 X127.979 Y114.773 E.1377
G1 X127.532 Y114.864 E.01443
G1 X130.519 Y117.851 E.13362
G1 X129.981 Y117.851 E.01702
G1 X127.069 Y114.94 E.13026
G1 X126.599 Y115.007 E.01503
G1 X129.443 Y117.851 E.12722
G1 X128.905 Y117.851 E.01702
G1 X126.102 Y115.049 E.12537
G1 X125.605 Y115.09 E.01577
G1 X128.367 Y117.851 E.12353
G1 X127.829 Y117.851 E.01702
G1 X125.069 Y115.091 E.12347
G1 X124.531 Y115.091 E.01702
G1 X127.291 Y117.851 E.12347
G1 X126.753 Y117.851 E.01702
G1 X123.956 Y115.054 E.12511
G1 X123.371 Y115.007 E.01858
G1 X126.265 Y117.902 E.12949
G1 X126.157 Y117.941 E.00364
G1 X125.935 Y118.109 E.00882
G1 X122.731 Y114.906 E.14331
G1 X122.073 Y114.785 E.02119
G1 X125.715 Y118.427 E.16294
G1 X125.684 Y118.501 E.00251
G1 X125.649 Y118.745 E.00782
G1 X125.649 Y118.899 E.00488
G1 X121.359 Y114.609 E.19193
G1 X121.103 Y114.546 E.00832
G1 X120.584 Y114.373 E.01731
G1 X125.649 Y119.437 E.22656
G1 X125.649 Y119.975 E.01702
G1 X119.727 Y114.053 E.26494
G1 X119.068 Y113.775 E.02261
G1 X118.735 Y113.599 E.01192
G1 X125.818 Y120.683 E.31691
M204 S1000
;WIPE_START
G1 F8640
G1 X123.491 Y118.356 E-.76
;WIPE_END
G1 E-.04 F2100
G1 Z.6 F720
G1 X110.517 Y95.159 F10800
G1 Z.2 F720
G1 E.8 F2100
M204 S800
G1 F1200
G1 X111.099 Y95.741 E.02601
G1 X111.099 Y96.279 E.01702
G1 X110.149 Y95.329 E.04249
G1 X109.611 Y95.329 E.01702
G1 X111.099 Y96.817 E.06656
G1 X111.099 Y97.355 E.01702
G1 X109.073 Y95.329 E.09064
G1 X108.535 Y95.329 E.01702
G1 X111.099 Y97.893 E.11471
G1 X111.099 Y98.431 E.01702
G1 X108.351 Y95.684 E.12291
G1 X108.351 Y96.222 E.01702
G1 X111.099 Y98.969 E.12291
G1 X111.099 Y99.507 E.01702
G1 X108.351 Y96.76 E.12291
G1 X108.351 Y97.298 E.01702
G1 X111.099 Y100.045 E.12291
G1 X111.099 Y100.583 E.01702
G1 X108.351 Y97.836 E.12291
G1 X108.351 Y98.374 E.01702
G1 X111.099 Y101.121 E.12291
G1 X111.117 Y101.678 E.01761
G1 X108.351 Y98.912 E.12373
G1 X108.351 Y99.45 E.01702
G1 X111.14 Y102.238 E.12474
G1 X111.209 Y102.845 E.01933
G1 X108.351 Y99.988 E.12783
G1 X108.351 Y100.526 E.01702
G1 X111.284 Y103.458 E.13118
G1 X111.423 Y104.136 E.02189
G1 X108.351 Y101.064 E.13743
G1 X108.351 Y101.602 E.01702
G1 X111.593 Y104.843 E.145
G1 X111.815 Y105.604 E.02508
G1 X108.351 Y102.14 E.15497
G1 X108.351 Y102.678 E.01702
G1 X112.141 Y106.468 E.16955
G1 X112.594 Y107.459 E.03446
