; generated by PrusaSlicer 2.5.2+win64 on 2023-05-22 at 02:28:05 UTC


;
;
; 

; external perimeters extrusion width = 0.45mm
; perimeters extrusion width = 0.45mm
; infill extrusion width = 0.45mm
; solid infill extrusion width = 0.45mm
; top infill extrusion width = 0.40mm
; first layer extrusion width = 0.42mm

M73 P0 R16
M73 Q0 S16
M201 X1000 Y1000 Z200 E5000 ; sets maximum accelerations, mm/sec^2
M203 X200 Y200 Z12 E120 ; sets maximum feedrates, mm / sec
M204 P1250 R1250 T1250 ; sets acceleration (P, T) and retract acceleration (R), mm/sec^2
M205 X8.00 Y8.00 Z0.40 E4.50 ; sets the jerk limits, mm/sec
M205 S0 T0 ; sets the minimum extruding and travel feed rate, mm/sec
M107
;TYPE:Custom
M862.3 P "MK3S" ; printer model check
M862.1 P0.4 ; nozzle diameter check
M115 U3.12.2 ; tell printer latest fw version
G90 ; use absolute coordinates
M83 ; extruder relative mode
M104 S215 ; set extruder temp
M140 S60 ; set bed temp
M190 S60 ; wait for bed temp
M109 S215 ; wait for extruder temp
G28 W ; home all without mesh bed level
G80 ; mesh bed leveling

G1 Z0.2 F720
G1 Y-3 F1000 ; go outside print area
G92 E0
G1 X60 E9 F1000 ; intro line
G1 X100 E12.5 F1000 ; intro line

G92 E0
M221 S95

; Don't change E values below. Excessive value can damage the printer.
M907 E430 ; set extruder motor current
G21 ; set units to millimeters
G90 ; use absolute coordinates
M83 ; use relative distances for extrusion
M900 K0.05 ; Filament gcode LA 1.5
M900 K30 ; Filament gcode LA 1.0
M107
;LAYER_CHANGE
;Z:0.2
;HEIGHT:0.2
;BEFORE_LAYER_CHANGE
G92 E0.0
;0.2


G1 E-.8 F2100
G1 Z.4 F720
;AFTER_LAYER_CHANGE
;0.2
G1 X114.33 Y89.187 F10800
G1 Z.2 F720
G1 E.8 F2100
M204 S800
;TYPE:Skirt/Brim
;WIDTH:0.42
G1 F1200
G1 X114.831 Y88.615 E.02385
G1 X115.595 Y87.923 E.03231
G1 X116.214 Y87.48 E.02385
G1 X117.317 Y86.891 E.03921
G1 X118.028 Y86.622 E.02385
G1 X119.028 Y86.372 E.03231
G1 X120.408 Y86.246 E.04344
G1 X134.593 Y86.246 E.44476
G1 X136.01 Y86.639 E.04612
G1 X137.023 Y87.705 E.04612
G1 X137.347 Y89 E.04186
G1 X137.347 Y121 E1.00334
G1 X136.954 Y122.417 E.04612
M73 P1 R16
M73 Q1 S16
G1 X135.888 Y123.431 E.04612
G1 X134.593 Y123.754 E.04186
G1 X120.272 Y123.751 E.449
G1 X118.763 Y123.576 E.04765
G1 X117.566 Y123.213 E.03921
G1 X116.873 Y122.899 E.02385
G1 X116.214 Y122.52 E.02385
G1 X115.386 Y121.906 E.03231
G1 X114.502 Y121.022 E.03921
G1 X114.038 Y120.419 E.02385
G1 X113.636 Y119.773 E.02385
G1 X113.195 Y118.841 E.03231
G1 X112.832 Y117.645 E.03921
G1 X112.707 Y116.894 E.02385
G1 X112.653 Y116 E.02809
G1 X112.657 Y93.865 E.69403
G1 X112.779 Y92.62 E.03921
G1 X112.951 Y91.879 E.02385
G1 X113.508 Y90.465 E.04765
G1 X114.298 Y89.238 E.04577
M204 S1000
G1 X114.629 Y89.459 F10800
M204 S800
G1 F1200
G1 X114.781 Y89.232 E.00858
G1 X115.82 Y88.226 E.04533
G1 X116.418 Y87.797 E.02308
G1 X117.478 Y87.232 E.03766
G1 X119.083 Y86.745 E.0526
G1 X120.408 Y86.623 E.0417
G1 X134.593 Y86.623 E.44476
G1 X135.9 Y87.015 E.04278
G1 X136.776 Y88.06 E.04278
G1 X136.97 Y89 E.03008
G1 X136.97 Y121 E1.00334
G1 X136.578 Y122.307 E.04278
G1 X135.532 Y123.183 E.04278
G1 X134.593 Y123.377 E.03008
G1 X120.291 Y123.374 E.44842
G1 X118.795 Y123.195 E.04724
G1 X117.693 Y122.858 E.03613
G1 X117.034 Y122.558 E.02269
G1 X115.639 Y121.626 E.0526
G1 X114.781 Y120.768 E.03805
G1 X114.341 Y120.194 E.02269
G1 X113.55 Y118.714 E.0526
G1 X113.198 Y117.553 E.03805
G1 X113.08 Y116.839 E.02269
G1 X113.033 Y93.883 E.71976
G1 X113.152 Y92.676 E.03805
G1 X113.317 Y91.971 E.02269
G1 X113.849 Y90.627 E.04533
G1 X114.596 Y89.509 E.04214
M204 S1000
; printing object connector bracket v1.stl id:0 copy 0
;WIPE_START
G1 F8640
G1 X114.781 Y89.232 E-.07704
G1 X115.82 Y88.226 E-.33384
G1 X116.418 Y87.797 E-.16994
G1 X117.103 Y87.432 E-.17918
;WIPE_END
G1 E-.04 F2100
G1 Z.6 F720
G1 X133.805 Y111.956 F10800
G1 Z.2 F720
G1 E.8 F2100
M204 S800
;TYPE:Perimeter
;WIDTH:0.419999
G1 F1200
G1 X133.805 Y112.057 E.00315
G1 X133.805 Y120.213 E.25573
G1 X120.441 Y120.213 E.41904
M73 Q2 S16
G1 X119.586 Y120.129 E.02692
M73 P2 R16
G1 X118.796 Y119.889 E.02587
G1 X118.069 Y119.5 E.02588
G1 X117.431 Y118.977 E.02588
G1 X116.907 Y118.339 E.02588
G1 X116.518 Y117.611 E.02588
G1 X116.279 Y116.821 E.02587
G1 X116.195 Y115.967 E.02692
G1 X116.189 Y105.424 E.33055
;WIDTH:0.40975
G1 X116.189 Y104.662 E.02326
;WIDTH:0.419999
G1 X116.195 Y94.033 E.33325
G1 X116.279 Y93.179 E.02692
G1 X116.518 Y92.389 E.02587
G1 X116.907 Y91.661 E.02588
G1 X117.431 Y91.023 E.02588
G1 X118.069 Y90.5 E.02588
G1 X118.796 Y90.111 E.02588
G1 X119.586 Y89.871 E.02587
G1 X120.441 Y89.787 E.02692
G1 X133.805 Y89.787 E.41904
G1 X133.805 Y98.062 E.25945
G1 X133.116 Y98.442 E.02468
G1 X132.588 Y98.82 E.02035
G1 X132.093 Y99.24 E.02035
G1 X131.635 Y99.7 E.02035
G1 X131.01 Y100.483 E.03141
G1 X130.696 Y100.965 E.01804
G1 X130.338 Y101.631 E.02371
G1 X130.076 Y102.249 E.02104
G1 X129.877 Y102.851 E.01988
G1 X129.735 Y103.431 E.01874
G1 X129.64 Y104.003 E.01817
G1 X129.588 Y104.57 E.01786
G1 X129.575 Y105.136 E.01776
G1 X129.604 Y105.706 E.01787
G1 X129.682 Y106.317 E.01932
G1 X129.821 Y106.964 E.02076
G1 X130.005 Y107.572 E.01991
G1 X130.243 Y108.176 E.02035
G1 X130.548 Y108.786 E.02138
G1 X130.865 Y109.315 E.01932
G1 X131.245 Y109.841 E.02035
G1 X131.667 Y110.335 E.02036
G1 X132.128 Y110.791 E.02035
G1 X132.625 Y111.209 E.02035
G1 X133.156 Y111.583 E.02035
G1 X133.753 Y111.926 E.02162
M204 S1000
G1 X134.183 Y111.72 F10800
M204 S800
;TYPE:External perimeter
G1 F1200
G1 X134.183 Y120.59 E.2781
G1 X120.422 Y120.59 E.43144
G1 X119.512 Y120.501 E.02867
G1 X118.651 Y120.24 E.0282
G1 X117.858 Y119.815 E.02821
G1 X117.163 Y119.245 E.02821
G1 X116.592 Y118.549 E.0282
G1 X116.168 Y117.756 E.02821
G1 X115.907 Y116.895 E.0282
G1 X115.818 Y115.985 E.02867
G1 X115.817 Y94.015 E.68887
G1 X115.907 Y93.105 E.02867
G1 X116.168 Y92.244 E.0282
G1 X116.592 Y91.451 E.02821
G1 X117.163 Y90.755 E.02821
G1 X117.858 Y90.185 E.0282
G1 X118.651 Y89.76 E.02821
G1 X119.512 Y89.499 E.0282
G1 X120.422 Y89.41 E.02867
G1 X134.183 Y89.41 E.43144
G1 X134.183 Y98.286 E.2783
G1 X133.335 Y98.75 E.0303
G1 X132.831 Y99.108 E.01938
G1 X132.36 Y99.507 E.01938
G1 X131.922 Y99.944 E.01938
G1 X131.317 Y100.703 E.03043
G1 X131.02 Y101.159 E.01707
G1 X130.676 Y101.797 E.02273
G1 X130.427 Y102.386 E.02003
G1 X130.238 Y102.958 E.01892
G1 X130.104 Y103.509 E.01777
G1 X130.014 Y104.05 E.01719
G1 X129.964 Y104.586 E.01688
G1 X129.952 Y105.121 E.01678
G1 X129.978 Y105.659 E.01689
G1 X130.051 Y106.239 E.01832
G1 X130.183 Y106.857 E.01981
G1 X130.356 Y107.435 E.01893
G1 X130.582 Y108.01 E.01938
G1 X130.871 Y108.593 E.0204
G1 X131.172 Y109.095 E.01834
G1 X131.532 Y109.597 E.01938
M73 P2 R15
G1 X131.933 Y110.068 E.01938
G1 X132.371 Y110.503 E.01938
G1 X132.844 Y110.901 E.01938
G1 X133.348 Y111.259 E.01938
G1 X134.13 Y111.691 E.02802
M204 S1000
G1 X133.923 Y112.024 F10800
;WIPE_START
G1 F8640
G1 X134.149 Y114.983 E-.76
;WIPE_END
G1 E-.04 F2100
G1 Z.6 F720
G1 X125.106 Y107.082 F10800
G1 Z.2 F720
G1 E.8 F2100
M204 S800
;TYPE:Perimeter
M73 Q3 S16
G1 F1200
G1 X124.683 Y107.279 E.01464
G1 X124.28 Y107.38 E.01304
G1 X123.924 Y107.41 E.0112
G1 X118.904 Y107.423 E.15738
G1 X118.451 Y107.378 E.01428
M73 P3 R15
G1 X118.051 Y107.264 E.01304
G1 X117.677 Y107.081 E.01304
G1 X117.341 Y106.836 E.01304
G1 X117.052 Y106.537 E.01304
G1 X116.82 Y106.192 E.01304
G1 X116.651 Y105.812 E.01304
;WIDTH:0.419832
G1 X116.556 Y105.408 E.01301
;WIDTH:0.40975
G1 X116.554 Y104.677 E.02228
;WIDTH:0.419999
G1 X116.68 Y104.18 E.01609
G1 X116.863 Y103.806 E.01304
G1 X117.107 Y103.47 E.01304
G1 X117.407 Y103.181 E.01304
G1 X117.752 Y102.949 E.01304
G1 X118.132 Y102.78 E.01304
G1 X118.535 Y102.679 E.01304
G1 X118.891 Y102.649 E.0112
G1 X123.912 Y102.636 E.15743
G1 X124.364 Y102.681 E.01423
G1 X124.764 Y102.795 E.01304
G1 X125.138 Y102.978 E.01304
G1 X125.474 Y103.223 E.01304
G1 X125.763 Y103.522 E.01304
G1 X125.995 Y103.867 E.01304
G1 X126.164 Y104.247 E.01304
G1 X126.265 Y104.651 E.01304
G1 X126.293 Y105.066 E.01304
G1 X126.25 Y105.479 E.01304
G1 X126.118 Y105.915 E.01427
G1 X125.896 Y106.334 E.01489
G1 X125.634 Y106.664 E.01319
G1 X125.346 Y106.922 E.01211
G1 X125.156 Y107.049 E.00716
M204 S1000
G1 X124.704 Y106.861 F10800
M204 S800
;TYPE:External perimeter
G1 F1200
G1 X124.585 Y106.915 E.00413
G1 X124.246 Y107.004 E.01099
G1 X123.923 Y107.033 E.01017
G1 X118.903 Y107.046 E.15738
G1 X118.548 Y107.014 E.0112
G1 X118.21 Y106.921 E.01099
G1 X117.893 Y106.772 E.01099
G1 X117.607 Y106.569 E.01099
G1 X117.361 Y106.32 E.01099
G1 X117.161 Y106.032 E.01099
G1 X117.015 Y105.713 E.01099
G1 X116.926 Y105.374 E.01099
G1 X116.897 Y105.025 E.01099
M73 Q3 S15
G1 X116.93 Y104.676 E.01099
G1 X117.022 Y104.338 E.01099
G1 X117.172 Y104.022 E.01099
G1 X117.375 Y103.736 E.01099
G1 X117.624 Y103.489 E.01099
G1 X117.912 Y103.29 E.01099
G1 X118.23 Y103.143 E.01099
G1 X118.569 Y103.055 E.01099
G1 X118.892 Y103.026 E.01017
G1 X123.912 Y103.013 E.15739
G1 X124.267 Y103.045 E.01118
G1 X124.605 Y103.138 E.01099
G1 X125.098 Y103.41 E.01766
G1 X125.208 Y103.49 E.00426
G1 X125.574 Y103.909 E.01743
G1 X125.8 Y104.346 E.01543
G1 X125.889 Y104.685 E.01099
G1 X125.918 Y105.034 E.01099
G1 X125.885 Y105.383 E.01099
G1 X125.776 Y105.757 E.01221
G1 X125.586 Y106.119 E.01283
G1 X125.216 Y106.549 E.01777
G1 X124.903 Y106.769 E.01201
G1 X124.759 Y106.835 E.00498
M204 S1000
G1 X124.697 Y106.992 F10800
;WIPE_START
G1 F8640
G1 X124.585 Y106.915 E-.04424
G1 X124.246 Y107.004 E-.08091
G1 X123.923 Y107.033 E-.0749
G1 X121.498 Y107.039 E-.55995
;WIPE_END
G1 E-.04 F2100
G1 Z.6 F720
G1 X133.636 Y90.724 F10800
G1 Z.2 F720
G1 E.8 F2100
M204 S800
;TYPE:Solid infill
;WIDTH:0.422136
G1 F1200
G1 X133.039 Y90.126 E.02663
G1 X132.502 Y90.126 E.01691
G1 X133.466 Y91.09 E.04298
G1 X133.466 Y91.626 E.01691
G1 X131.966 Y90.126 E.06689
G1 X131.43 Y90.126 E.01691
G1 X133.466 Y92.163 E.0908
G1 X133.466 Y92.699 E.01691
G1 X130.893 Y90.126 E.11472
G1 X130.357 Y90.126 E.01691
G1 X133.466 Y93.235 E.13863
G1 X133.466 Y93.772 E.01691
G1 X129.821 Y90.126 E.16255
G1 X129.285 Y90.126 E.01691
G1 X133.466 Y94.308 E.18646
G1 X133.466 Y94.844 E.01691
G1 X128.748 Y90.126 E.21038
G1 X128.212 Y90.126 E.01691
G1 X133.466 Y95.381 E.23429
G1 X133.466 Y95.917 E.01691
G1 X127.676 Y90.126 E.25821
G1 X127.139 Y90.126 E.01691
G1 X133.466 Y96.453 E.28212
G1 X133.466 Y96.989 E.01691
G1 X126.603 Y90.126 E.30604
G1 X126.067 Y90.126 E.01691
G1 X133.466 Y97.526 E.32995
G1 X133.466 Y97.861 E.01058
G1 X133.337 Y97.933 E.00465
G1 X125.531 Y90.126 E.34812
G1 X124.994 Y90.126 E.01691
G1 X132.992 Y98.124 E.35666
G1 X132.674 Y98.342 E.01217
G1 X124.458 Y90.126 E.36636
G1 X123.922 Y90.126 E.01691
G1 X132.362 Y98.567 E.37639
G1 X132.072 Y98.813 E.012
M73 Q4 S15
G1 X123.385 Y90.126 E.38735
G1 X122.849 Y90.126 E.01691
M73 P4 R15
G1 X131.788 Y99.065 E.39862
G1 X131.519 Y99.333 E.01196
G1 X122.313 Y90.126 E.41055
G1 X121.776 Y90.126 E.01691
G1 X131.264 Y99.614 E.42309
G1 X131.017 Y99.903 E.01199
G1 X121.24 Y90.126 E.43597
G1 X120.704 Y90.126 E.01691
G1 X130.79 Y100.212 E.44976
G1 X130.566 Y100.525 E.01212
G1 X120.194 Y90.152 E.46254
G1 X119.705 Y90.2 E.01547
G1 X130.364 Y100.859 E.47532
G1 X130.171 Y101.202 E.01241
G1 X119.285 Y90.317 E.4854
G1 X118.882 Y90.45 E.01339
G1 X129.994 Y101.562 E.49552
G1 X129.834 Y101.938 E.01289
G1 X118.532 Y90.636 E.50395
G1 X118.258 Y90.783 E.00981
G1 X118.195 Y90.835 E.00258
G1 X129.683 Y102.323 E.5123
G1 X129.557 Y102.734 E.01354
G1 X117.9 Y91.077 E.51983
G1 X117.672 Y91.264 E.00932
M73 Q5 S15
G1 X117.618 Y91.33 E.0027
G1 X129.446 Y103.159 E.52747
G1 X129.354 Y103.604 E.01432
M73 P5 R15
G1 X117.376 Y91.625 E.53416
G1 X117.191 Y91.851 E.0092
G1 X117.147 Y91.932 E.00292
G1 X129.289 Y104.075 E.54146
G1 X129.249 Y104.571 E.01571
G1 X116.96 Y92.282 E.54802
G1 X116.833 Y92.519 E.0085
G1 X116.793 Y92.651 E.00434
G1 X129.237 Y105.095 E.55489
G1 X129.26 Y105.654 E.01766
G1 X116.668 Y93.063 E.56149
G1 X116.613 Y93.245 E.00601
G1 X116.586 Y93.517 E.00861
G1 X129.333 Y106.264 E.56841
G1 X129.467 Y106.934 E.02155
G1 X116.538 Y94.005 E.57652
G1 X116.534 Y94.537 E.01677
G1 X124.329 Y102.332 E.34759
G1 X123.757 Y102.297 E.01805
G1 X116.534 Y95.073 E.32211
G1 X116.534 Y95.61 E.01691
G1 X123.222 Y102.298 E.29826
G1 X122.688 Y102.3 E.01687
G1 X116.534 Y96.146 E.27441
G1 X116.534 Y96.682 E.01691
G1 X122.153 Y102.301 E.25056
G1 X121.618 Y102.302 E.01687
G1 X116.534 Y97.219 E.2267
M73 Q6 S15
G1 X116.534 Y97.755 E.01691
M73 P6 R15
G1 X121.083 Y102.304 E.20285
G1 X120.548 Y102.305 E.01687
G1 X116.534 Y98.291 E.179
G1 X116.534 Y98.827 E.01691
G1 X120.013 Y102.307 E.15515
G1 X119.478 Y102.308 E.01687
G1 X116.534 Y99.364 E.1313
G1 X116.534 Y99.9 E.01691
G1 X118.944 Y102.31 E.10745
G1 X118.453 Y102.356 E.01552
G1 X116.534 Y100.436 E.0856
G1 X116.534 Y100.973 E.01691
G1 X118.027 Y102.465 E.06656
G1 X117.903 Y102.502 E.00406
G1 X117.653 Y102.628 E.00884
G1 X116.534 Y101.509 E.04989
G1 X116.534 Y102.045 E.01691
G1 X117.321 Y102.832 E.03509
G1 X117.024 Y103.072 E.01202
G1 X116.534 Y102.582 E.02187
G1 X116.534 Y103.118 E.01691
G1 X116.775 Y103.359 E.01074
G1 X116.555 Y103.675 E.01215
G1 X116.364 Y103.484 E.00849
M204 S1000
;WIPE_START
G1 F8640
G1 X116.555 Y103.675 E-.06216
G1 X116.775 Y103.359 E-.08896
G1 X116.534 Y103.118 E-.07863
G1 X116.534 Y102.582 E-.12383
G1 X117.024 Y103.072 E-.16015
G1 X117.321 Y102.832 E-.08805
G1 X116.836 Y102.348 E-.15821
;WIPE_END
G1 E-.04 F2100
G1 Z.6 F720
G1 X126.37 Y104.373 F10800
G1 Z.2 F720
G1 E.8 F2100
M204 S800
G1 F1200
G1 X129.687 Y107.69 E.1479
G1 X129.911 Y108.263 E.01938
G1 X130.091 Y108.63 E.0129
G1 X126.623 Y105.162 E.15465
G1 X126.559 Y105.635 E.01504
G1 X133.466 Y112.542 E.30801
G1 X133.466 Y113.078 E.01691
G1 X126.431 Y106.043 E.3137
G1 X126.251 Y106.399 E.01258
G1 X133.466 Y113.614 E.32174
G1 X133.466 Y114.151 E.01691
G1 X126.034 Y106.718 E.33143
G1 X125.984 Y106.792 E.0028
G1 X125.776 Y106.997 E.0092
G1 X133.466 Y114.687 E.34292
G1 X133.466 Y115.223 E.01691
G1 X125.483 Y107.24 E.356
G1 X125.333 Y107.346 E.00577
G1 X125.142 Y107.436 E.00666
G1 X133.466 Y115.76 E.37119
G1 X133.466 Y116.296 E.01691
G1 X124.776 Y107.606 E.38751
G1 X124.346 Y107.712 E.01397
G1 X133.466 Y116.832 E.4067
G1 X133.466 Y117.368 E.01691
G1 X123.847 Y107.749 E.42894
G1 X123.312 Y107.751 E.01687
G1 X133.466 Y117.905 E.45279
G1 X133.466 Y118.441 E.01691
M73 P7 R15
M73 Q7 S15
G1 X122.777 Y107.752 E.47665
G1 X122.242 Y107.754 E.01687
G1 X133.466 Y118.977 E.5005
G1 X133.466 Y119.514 E.01691
G1 X121.708 Y107.755 E.52435
G1 X121.173 Y107.757 E.01687
G1 X133.29 Y119.874 E.54033
G1 X132.753 Y119.874 E.01691
G1 X120.638 Y107.758 E.54027
G1 X120.103 Y107.759 E.01687
G1 X132.217 Y119.874 E.5402
G1 X131.681 Y119.874 E.01691
G1 X119.568 Y107.761 E.54014
G1 X119.033 Y107.762 E.01687
G1 X131.145 Y119.874 E.54008
G1 X130.608 Y119.874 E.01691
G1 X118.452 Y107.717 E.54208
G1 X117.917 Y107.576 E.01745
G1 X117.634 Y107.436 E.00994
G1 X130.072 Y119.874 E.55463
G1 X129.536 Y119.874 E.01691
G1 X116.529 Y106.867 E.58002
G1 X116.529 Y107.403 E.01692
M73 P8 R15
M73 Q8 S15
G1 X128.999 Y119.874 E.55609
G1 X128.463 Y119.874 E.01691
G1 X116.529 Y107.94 E.53216
G1 X116.53 Y108.476 E.01692
G1 X127.927 Y119.874 E.50823
G1 X127.39 Y119.874 E.01691
G1 X116.53 Y109.013 E.4843
G1 X116.53 Y109.55 E.01692
G1 X126.854 Y119.874 E.46038
G1 X126.318 Y119.874 E.01691
G1 X116.531 Y110.086 E.43645
G1 X116.531 Y110.623 E.01692
G1 X125.782 Y119.874 E.41252
G1 X125.245 Y119.874 E.01691
G1 X116.531 Y111.159 E.38859
G1 X116.531 Y111.696 E.01692
G1 X124.709 Y119.874 E.36466
G1 X124.173 Y119.874 E.01691
G1 X116.532 Y112.233 E.34073
G1 X116.532 Y112.769 E.01692
G1 X123.636 Y119.874 E.3168
G1 X123.1 Y119.874 E.01691
G1 X116.532 Y113.306 E.29287
G1 X116.533 Y113.842 E.01692
G1 X122.564 Y119.874 E.26895
G1 X122.028 Y119.874 E.01691
G1 X116.533 Y114.379 E.24502
G1 X116.533 Y114.916 E.01692
M73 P8 R14
G1 X121.491 Y119.874 E.22109
G1 X120.955 Y119.874 E.01691
M73 P9 R14
M73 Q9 S15
G1 X116.534 Y115.452 E.19716
G1 X116.538 Y115.993 E.01705
G1 X120.414 Y119.869 E.17286
G1 X119.82 Y119.811 E.01884
G1 X116.597 Y116.588 E.14373
G1 X116.613 Y116.755 E.0053
G1 X116.781 Y117.308 E.01824
