; generated by PrusaSlicer 2.5.2+win64 on 2023-05-20 at 21:58:33 UTC


;
;
; 

; external perimeters extrusion width = 0.45mm
; perimeters extrusion width = 0.45mm
; infill extrusion width = 0.45mm
; solid infill extrusion width = 0.45mm
; top infill extrusion width = 0.40mm
; first layer extrusion width = 0.42mm

M73 P0 R227
M73 Q0 S231
M201 X1000 Y1000 Z200 E5000 ; sets maximum accelerations, mm/sec^2
M203 X200 Y200 Z12 E120 ; sets maximum feedrates, mm / sec
M204 P1250 R1250 T1250 ; sets acceleration (P, T) and retract acceleration (R), mm/sec^2
M205 X8.00 Y8.00 Z0.40 E4.50 ; sets the jerk limits, mm/sec
M205 S0 T0 ; sets the minimum extruding and travel feed rate, mm/sec
M107
;TYPE:Custom
M862.3 P "MK3S" ; printer model check
M862.1 P0.4 ; nozzle diameter check
M115 U3.12.2 ; tell printer latest fw version
G90 ; use absolute coordinates
M83 ; extruder relative mode
M104 S215 ; set extruder temp
M140 S60 ; set bed temp
M190 S60 ; wait for bed temp
M109 S215 ; wait for extruder temp
G28 W ; home all without mesh bed level
G80 ; mesh bed leveling

G1 Z0.2 F720
G1 Y-3 F1000 ; go outside print area
G92 E0
G1 X60 E9 F1000 ; intro line
G1 X100 E12.5 F1000 ; intro line

G92 E0
M221 S95

; Don't change E values below. Excessive value can damage the printer.
M907 E430 ; set extruder motor current
G21 ; set units to millimeters
G90 ; use absolute coordinates
M83 ; use relative distances for extrusion
M900 K0.05 ; Filament gcode LA 1.5
M900 K30 ; Filament gcode LA 1.0
M107
;LAYER_CHANGE
;Z:0.2
;HEIGHT:0.2
;BEFORE_LAYER_CHANGE
G92 E0.0
;0.2


G1 E-.8 F2100
G1 Z.4 F720
;AFTER_LAYER_CHANGE
;0.2
G1 X73.665 Y54.693 F10800
G1 Z.2 F720
G1 E.8 F2100
M204 S800
;TYPE:Skirt/Brim
;WIDTH:0.42
G1 F1200
G1 X74.71 Y53.817 E.04278
G1 X75.65 Y53.623 E.03008
G1 X174.35 Y53.623 E3.09467
G1 X175.657 Y54.015 E.04278
G1 X176.533 Y55.06 E.04278
G1 X176.727 Y56 E.03008
G1 X176.727 Y154 E3.07272
G1 X176.335 Y155.307 E.04278
M73 Q0 S230
G1 X175.29 Y156.183 E.04278
G1 X174.35 Y156.377 E.03008
G1 X75.65 Y156.377 E3.09467
G1 X74.343 Y155.985 E.04278
G1 X73.467 Y154.94 E.04278
G1 X73.273 Y154 E.03008
G1 X73.273 Y56 E3.07272
G1 X73.647 Y54.75 E.0409
M204 S1000
; printing object raspberry base v1.stl id:0 copy 0
;WIPE_START
G1 F8640
G1 X74.71 Y53.817 E-.32671
G1 X75.65 Y53.623 E-.22155
G1 X76.567 Y53.623 E-.21174
;WIPE_END
G1 E-.04 F2100
G1 Z.6 F720
G1 X173.563 Y56.787 F10800
G1 Z.2 F720
G1 E.8 F2100
M204 S800
;TYPE:Perimeter
;WIDTH:0.419999
G1 F1200
G1 X173.563 Y153.213 E3.02336
G1 X76.437 Y153.213 E3.04531
G1 X76.437 Y56.787 E3.02336
G1 X173.503 Y56.787 E3.04343
M204 S1000
G1 X173.94 Y56.41 F10800
M204 S800
;TYPE:External perimeter
G1 F1200
G1 X173.94 Y153.59 E3.04701
G1 X76.06 Y153.59 E3.06895
M73 P0 R226
G1 X76.06 Y56.41 E3.04701
G1 X173.88 Y56.41 E3.06707
M204 S1000
G1 X173.836 Y56.796 F10800
;WIPE_START
G1 F8640
G1 X173.882 Y59.701 E-.76
;WIPE_END
G1 E-.04 F2100
G1 Z.6 F720
G1 X143.442 Y62.938 F10800
G1 Z.2 F720
G1 E.8 F2100
M204 S800
;TYPE:Perimeter
G1 F1200
G1 X143.501 Y62.979 E.00225
G1 X145.271 Y64.749 E.07848
G1 X145.414 Y64.989 E.00878
G1 X145.437 Y65.148 E.00504
G1 X145.437 Y67.652 E.07848
G1 X145.37 Y67.919 E.00865
G1 X145.271 Y68.051 E.00517
G1 X143.501 Y69.821 E.07848
G1 X143.283 Y69.957 E.00807
G1 X143.102 Y69.987 E.00576
G1 X140.598 Y69.987 E.07848
G1 X140.331 Y69.92 E.00863
G1 X140.199 Y69.821 E.00519
G1 X138.429 Y68.051 E.07848
G1 X138.287 Y67.815 E.00863
G1 X138.263 Y67.652 E.00519
G1 X138.263 Y65.148 E.07848
G1 X138.337 Y64.869 E.00907
G1 X138.429 Y64.749 E.00474
G1 X140.199 Y62.979 E.07848
G1 X140.374 Y62.859 E.00665
G1 X140.598 Y62.813 E.00719
G1 X143.102 Y62.813 E.07848
G1 X143.326 Y62.859 E.00719
G1 X143.393 Y62.905 E.00252
M204 S1000
G1 X143.256 Y63.266 F10800
M204 S800
;TYPE:External perimeter
G1 F1200
G1 X145.005 Y65.015 E.07756
G1 X145.06 Y65.148 E.00452
G1 X145.06 Y67.652 E.07848
G1 X145.005 Y67.785 E.00452
G1 X143.235 Y69.555 E.07848
G1 X143.162 Y69.6 E.00269
G1 X140.598 Y69.61 E.08038
G1 X140.465 Y69.555 E.00452
G1 X138.693 Y67.783 E.07856
G1 X138.64 Y67.652 E.00445
G1 X138.64 Y65.148 E.07848
G1 X138.695 Y65.015 E.00452
G1 X140.465 Y63.245 E.07848
G1 X140.598 Y63.19 E.00452
G1 X143.102 Y63.19 E.07848
G1 X143.207 Y63.234 E.00357
M204 S1000
G1 X143.604 Y63.069 F10800
;WIPE_START
G1 F8640
G1 X145.005 Y65.015 E-.58447
G1 X145.06 Y65.148 E-.03332
G1 X145.06 Y65.764 E-.14221
;WIPE_END
G1 E-.04 F2100
G1 Z.6 F720
G1 X143.426 Y118.866 F10800
G1 Z.2 F720
G1 E.8 F2100
M204 S800
;TYPE:Perimeter
G1 F1200
G1 X143.253 Y118.966 E.00625
G1 X143.102 Y118.987 E.00481
G1 X140.598 Y118.987 E.07848
G1 X140.325 Y118.917 E.00885
G1 X140.199 Y118.821 E.00496
G1 X138.429 Y117.051 E.07848
G1 X138.287 Y116.816 E.00861
G1 X138.263 Y116.652 E.00521
G1 X138.263 Y114.148 E.07848
G1 X138.278 Y114.018 E.00413
G1 X138.429 Y113.749 E.00967
G1 X140.199 Y111.979 E.07848
G1 X140.443 Y111.835 E.0089
G1 X140.598 Y111.813 E.00492
G1 X143.102 Y111.813 E.07848
G1 X143.374 Y111.883 E.00883
G1 X143.501 Y111.979 E.00499
G1 X145.271 Y113.749 E.07848
G1 X145.416 Y113.995 E.00896
G1 X145.437 Y114.148 E.00485
G1 X145.437 Y116.652 E.07848
G1 X145.379 Y116.902 E.00806
G1 X145.156 Y117.166 E.01084
G1 X143.477 Y118.836 E.07423
M204 S1000
G1 X143.256 Y118.534 F10800
M204 S800
;TYPE:External perimeter
G1 F1200
G1 X143.102 Y118.61 E.00539
G1 X140.598 Y118.61 E.07848
G1 X140.465 Y118.555 E.00452
G1 X138.695 Y116.785 E.07848
G1 X138.64 Y116.652 E.00452
G1 X138.645 Y114.105 E.07985
G1 X138.695 Y114.015 E.00322
G1 X140.465 Y112.245 E.07848
G1 X140.598 Y112.19 E.00452
G1 X143.102 Y112.19 E.07848
G1 X143.235 Y112.245 E.00452
G1 X145.005 Y114.015 E.07848
G1 X145.06 Y114.148 E.00452
G1 X145.06 Y116.652 E.07848
G1 X145.005 Y116.785 E.00452
G1 X143.298 Y118.491 E.07568
M204 S1000
G1 X143.264 Y118.706 F10800
;WIPE_START
G1 F8640
G1 X143.102 Y118.61 E-.05301
G1 X140.598 Y118.61 E-.57796
G1 X140.465 Y118.555 E-.03332
G1 X140.172 Y118.262 E-.09571
;WIPE_END
G1 E-.04 F2100
G1 Z.6 F720
G1 X156.403 Y144.293 F10800
G1 Z.2 F720
G1 E.8 F2100
M204 S800
;TYPE:Perimeter
G1 F1200
G1 X156.288 Y144.226 E.00415
G1 X155.929 Y143.836 E.01663
G1 X155.771 Y143.311 E.0172
G1 X155.763 Y143.215 E.00303
G1 X155.763 Y131.585 E.36462
G1 X155.878 Y131.089 E.01598
M73 Q0 S229
G1 X156.024 Y130.838 E.00909
G1 X156.413 Y130.479 E.01662
G1 X156.928 Y130.323 E.01685
G1 X157.865 Y130.313 E.02937
G1 X158.361 Y130.428 E.01598
G1 X158.612 Y130.574 E.00909
G1 X158.977 Y130.976 E.01704
G1 X159.128 Y131.485 E.01665
G1 X159.137 Y143.215 E.36777
G1 X159.022 Y143.711 E.01598
G1 X158.876 Y143.962 E.00909
G1 X158.457 Y144.336 E.01765
G1 X157.962 Y144.479 E.01613
G1 X157.035 Y144.487 E.02906
G1 X156.539 Y144.372 E.01598
G1 X156.455 Y144.323 E.00305
M204 S1000
G1 X156.547 Y143.951 F10800
M204 S800
;TYPE:External perimeter
G1 F1200
G1 X156.242 Y143.611 E.0143
G1 X156.14 Y143.215 E.01285
G1 X156.14 Y131.585 E.36462
G1 X156.277 Y131.12 E.01521
G1 X156.639 Y130.792 E.01532
G1 X157.035 Y130.69 E.01285
G1 X157.865 Y130.69 E.02599
G1 X158.333 Y130.83 E.01534
G1 X158.658 Y131.189 E.01518
G1 X158.76 Y131.585 E.01285
G1 X158.76 Y143.215 E.36462
G1 X158.627 Y143.675 E.01504
G1 X158.261 Y144.008 E.01551
G1 X157.865 Y144.11 E.01285
G1 X157.035 Y144.11 E.02599
G1 X156.595 Y143.984 E.01437
M204 S1000
G1 X156.186 Y144.124 F10800
;WIPE_START
G1 F8640
G1 X156.242 Y143.611 E-.11857
G1 X156.14 Y143.215 E-.09461
G1 X156.14 Y140.846 E-.54682
;WIPE_END
G1 E-.04 F2100
G1 Z.6 F720
G1 X85.162 Y118.978 F10800
G1 Z.2 F720
G1 E.8 F2100
M204 S800
;TYPE:Perimeter
G1 F1200
G1 X82.598 Y118.987 E.08038
G1 X82.368 Y118.938 E.0074
G1 X82.199 Y118.821 E.00644
G1 X80.429 Y117.051 E.07848
G1 X80.284 Y116.805 E.00896
G1 X80.263 Y116.652 E.00485
G1 X80.263 Y114.148 E.07848
G1 X80.343 Y113.858 E.00944
G1 X80.429 Y113.749 E.00436
G1 X82.199 Y111.979 E.07848
G1 X82.451 Y111.833 E.00914
G1 X82.598 Y111.813 E.00467
G1 X85.102 Y111.813 E.07848
G1 X85.378 Y111.885 E.00897
G1 X85.501 Y111.979 E.00485
G1 X87.271 Y113.749 E.07848
G1 X87.414 Y113.987 E.00872
G1 X87.437 Y114.148 E.0051
G1 X87.437 Y116.652 E.07848
G1 X87.367 Y116.925 E.00886
G1 X87.271 Y117.051 E.00496
G1 X85.501 Y118.821 E.07848
G1 X85.263 Y118.964 E.0087
G1 X85.221 Y118.97 E.00132
M204 S1000
G1 X85.072 Y118.61 F10800
M204 S800
;TYPE:External perimeter
G1 F1200
G1 X82.598 Y118.61 E.07756
G1 X82.465 Y118.555 E.00452
G1 X80.695 Y116.785 E.07848
G1 X80.64 Y116.652 E.00452
G1 X80.64 Y114.148 E.07848
G1 X80.695 Y114.015 E.00452
G1 X82.465 Y112.245 E.07848
G1 X82.598 Y112.19 E.00452
G1 X85.102 Y112.19 E.07848
G1 X85.235 Y112.245 E.00452
G1 X87.007 Y114.017 E.07856
G1 X87.06 Y114.148 E.00445
G1 X87.06 Y116.652 E.07848
G1 X87.005 Y116.785 E.00452
G1 X85.235 Y118.555 E.07848
G1 X85.13 Y118.598 E.00357
M204 S1000
G1 X84.965 Y118.995 F10800
;WIPE_START
G1 F8640
G1 X82.598 Y118.61 E-.58448
G1 X82.465 Y118.555 E-.03332
G1 X82.03 Y118.119 E-.1422
;WIPE_END
G1 E-.04 F2100
G1 Z.6 F720
G1 X80.394 Y64.793 F10800
G1 Z.2 F720
G1 E.8 F2100
M204 S800
;TYPE:Perimeter
G1 F1200
G1 X82.199 Y62.979 E.08022
G1 X82.461 Y62.83 E.00945
G1 X82.598 Y62.813 E.00435
G1 X85.102 Y62.813 E.07848
G1 X85.326 Y62.859 E.00719
G1 X85.501 Y62.979 E.00665
G1 X87.271 Y64.749 E.07848
G1 X87.414 Y64.989 E.00878
G1 X87.437 Y65.148 E.00504
G1 X87.437 Y67.652 E.07848
G1 X87.367 Y67.925 E.00886
G1 X87.271 Y68.051 E.00496
G1 X85.501 Y69.821 E.07848
G1 X85.268 Y69.962 E.00855
G1 X85.102 Y69.987 E.00527
G1 X82.598 Y69.987 E.07848
G1 X82.368 Y69.938 E.0074
G1 X82.199 Y69.821 E.00644
G1 X80.429 Y68.051 E.07848
G1 X80.284 Y67.805 E.00896
G1 X80.263 Y67.652 E.00485
G1 X80.263 Y65.148 E.07848
G1 X80.357 Y64.84 E.01011
M204 S1000
G1 X80.716 Y64.994 F10800
M204 S800
;TYPE:External perimeter
G1 F1200
G1 X82.465 Y63.245 E.07756
G1 X82.598 Y63.19 E.00452
G1 X85.102 Y63.19 E.07848
G1 X85.208 Y63.223 E.00351
G1 X87.005 Y65.015 E.07956
G1 X87.06 Y65.148 E.00452
G1 X87.06 Y67.652 E.07848
G1 X87.005 Y67.785 E.00452
G1 X85.233 Y69.557 E.07856
G1 X85.102 Y69.61 E.00445
G1 X82.598 Y69.61 E.07848
G1 X82.465 Y69.555 E.00452
G1 X80.695 Y67.785 E.07848
G1 X80.64 Y67.652 E.00452
G1 X80.64 Y65.148 E.07848
G1 X80.684 Y65.043 E.00357
M204 S1000
G1 X80.519 Y64.646 F10800
;WIPE_START
G1 F8640
G1 X82.465 Y63.245 E-.58447
G1 X82.598 Y63.19 E-.03332
G1 X83.214 Y63.19 E-.14221
;WIPE_END
G1 E-.04 F2100
G1 Z.6 F720
G1 X173.393 Y57.721 F10800
G1 Z.2 F720
G1 E.8 F2100
M204 S800
;TYPE:Solid infill
;WIDTH:0.420856
G1 F1200
G1 X172.799 Y57.126 E.02642
G1 X172.264 Y57.126 E.0168
G1 X173.224 Y58.086 E.04263
G1 X173.224 Y58.62 E.0168
G1 X171.73 Y57.126 E.06638
G1 X171.195 Y57.126 E.0168
G1 X173.224 Y59.155 E.09014
G1 X173.224 Y59.689 E.0168
G1 X170.661 Y57.126 E.11389
G1 X170.126 Y57.126 E.0168
G1 X173.224 Y60.224 E.13764
G1 X173.224 Y60.758 E.0168
G1 X169.592 Y57.126 E.1614
G1 X169.057 Y57.126 E.0168
G1 X173.224 Y61.293 E.18515
G1 X173.224 Y61.827 E.0168
G1 X168.523 Y57.126 E.2089
G1 X167.989 Y57.126 E.0168
G1 X173.224 Y62.361 E.23266
G1 X173.224 Y62.896 E.0168
G1 X167.454 Y57.126 E.25641
G1 X166.92 Y57.126 E.0168
G1 X173.224 Y63.43 E.28017
G1 X173.224 Y63.965 E.0168
G1 X166.385 Y57.126 E.30392
G1 X165.851 Y57.126 E.0168
G1 X173.224 Y64.499 E.32767
G1 X173.224 Y65.034 E.0168
G1 X165.316 Y57.126 E.35143
G1 X164.782 Y57.126 E.0168
G1 X173.224 Y65.568 E.37518
G1 X173.224 Y66.103 E.0168
G1 X164.247 Y57.126 E.39893
G1 X163.713 Y57.126 E.0168
G1 X173.224 Y66.637 E.42269
G1 X173.224 Y67.172 E.0168
G1 X163.178 Y57.126 E.44644
G1 X162.644 Y57.126 E.0168
G1 X173.224 Y67.706 E.4702
G1 X173.224 Y68.241 E.0168
G1 X162.109 Y57.126 E.49395
G1 X161.575 Y57.126 E.0168
G1 X173.224 Y68.775 E.5177
G1 X173.224 Y69.31 E.0168
G1 X161.04 Y57.126 E.54146
G1 X160.506 Y57.126 E.0168
G1 X173.224 Y69.844 E.56521
G1 X173.224 Y70.379 E.0168
G1 X159.971 Y57.126 E.58896
G1 X159.437 Y57.126 E.0168
G1 X173.224 Y70.913 E.61272
G1 X173.224 Y71.448 E.0168
G1 X158.902 Y57.126 E.63647
G1 X158.368 Y57.126 E.0168
G1 X173.224 Y71.982 E.66022
G1 X173.224 Y72.517 E.0168
G1 X157.833 Y57.126 E.68398
G1 X157.299 Y57.126 E.0168
G1 X173.224 Y73.051 E.70773
G1 X173.224 Y73.586 E.0168
G1 X156.764 Y57.126 E.73149
G1 X156.23 Y57.126 E.0168
G1 X173.224 Y74.12 E.75524
G1 X173.224 Y74.655 E.0168
G1 X155.695 Y57.126 E.77899
G1 X155.161 Y57.126 E.0168
G1 X173.224 Y75.189 E.80275
G1 X173.224 Y75.724 E.0168
G1 X154.626 Y57.126 E.8265
G1 X154.092 Y57.126 E.0168
G1 X173.224 Y76.258 E.85025
G1 X173.224 Y76.793 E.0168
G1 X153.557 Y57.126 E.87401
G1 X153.023 Y57.126 E.0168
M73 P0 R225
G1 X173.224 Y77.327 E.89776
G1 X173.224 Y77.861 E.0168
G1 X152.489 Y57.126 E.92151
G1 X151.954 Y57.126 E.0168
G1 X173.224 Y78.396 E.94527
G1 X173.224 Y78.93 E.0168
G1 X151.42 Y57.126 E.96902
G1 X150.885 Y57.126 E.0168
G1 X173.224 Y79.465 E.99278
G1 X173.224 Y79.999 E.0168
G1 X150.351 Y57.126 E1.01653
G1 X149.816 Y57.126 E.0168
G1 X173.224 Y80.534 E1.04028
G1 X173.224 Y81.068 E.0168
G1 X149.282 Y57.126 E1.06404
G1 X148.747 Y57.126 E.0168
G1 X173.224 Y81.603 E1.08779
G1 X173.224 Y82.137 E.0168
G1 X148.213 Y57.126 E1.11154
G1 X147.678 Y57.126 E.0168
G1 X173.224 Y82.672 E1.1353
G1 X173.224 Y83.206 E.0168
G1 X147.144 Y57.126 E1.15905
G1 X146.609 Y57.126 E.0168
G1 X173.224 Y83.741 E1.1828
G1 X173.224 Y84.275 E.0168
M73 Q0 S228
G1 X146.075 Y57.126 E1.20656
G1 X145.54 Y57.126 E.0168
G1 X173.224 Y84.81 E1.23031
G1 X173.224 Y85.344 E.0168
M73 P1 R225
M73 Q1 S228
G1 X145.006 Y57.126 E1.25407
G1 X144.471 Y57.126 E.0168
G1 X173.224 Y85.879 E1.27782
G1 X173.224 Y86.413 E.0168
G1 X143.937 Y57.126 E1.30157
G1 X143.402 Y57.126 E.0168
G1 X173.224 Y86.948 E1.32533
G1 X173.224 Y87.482 E.0168
G1 X142.868 Y57.126 E1.34908
G1 X142.333 Y57.126 E.0168
G1 X173.224 Y88.017 E1.37283
G1 X173.224 Y88.551 E.0168
G1 X141.799 Y57.126 E1.39659
G1 X141.264 Y57.126 E.0168
G1 X173.224 Y89.086 E1.42034
G1 X173.224 Y89.62 E.0168
G1 X140.73 Y57.126 E1.4441
G1 X140.195 Y57.126 E.0168
G1 X173.224 Y90.155 E1.46785
G1 X173.224 Y90.689 E.0168
G1 X139.661 Y57.126 E1.4916
G1 X139.126 Y57.126 E.0168
G1 X173.224 Y91.224 E1.51536
G1 X173.224 Y91.758 E.0168
G1 X138.592 Y57.126 E1.53911
G1 X138.058 Y57.126 E.0168
G1 X173.224 Y92.292 E1.56286
G1 X173.224 Y92.827 E.0168
G1 X145.776 Y65.38 E1.21982
G1 X145.776 Y65.914 E.0168
M73 P1 R224
G1 X173.224 Y93.361 E1.21982
G1 X173.224 Y93.896 E.0168
G1 X145.776 Y66.449 E1.21982
G1 X145.776 Y66.983 E.0168
G1 X173.224 Y94.43 E1.21982
G1 X173.224 Y94.965 E.0168
G1 X145.776 Y67.518 E1.21982
G1 X145.762 Y67.814 E.00931
G1 X145.712 Y67.988 E.00569
G1 X173.224 Y95.499 E1.22269
G1 X173.224 Y96.034 E.0168
G1 X145.496 Y68.307 E1.23227
G1 X145.229 Y68.574 E.01188
G1 X173.224 Y96.568 E1.24414
G1 X173.224 Y97.103 E.0168
G1 X144.962 Y68.841 E1.25602
G1 X144.695 Y69.108 E.01188
G1 X173.224 Y97.637 E1.2679
G1 X173.224 Y98.172 E.0168
G1 X144.427 Y69.376 E1.27977
G1 X144.16 Y69.643 E.01188
G1 X173.224 Y98.706 E1.29165
G1 X173.224 Y99.241 E.0168
M73 Q1 S227
G1 X143.893 Y69.91 E1.30353
G1 X143.614 Y70.166 E.01189
G1 X173.224 Y99.775 E1.31591
G1 X173.224 Y100.31 E.0168
G1 X143.221 Y70.307 E1.33338
G1 X143.115 Y70.326 E.00338
G1 X142.706 Y70.326 E.01286
G1 X173.224 Y100.844 E1.35628
G1 X173.224 Y101.379 E.0168
G1 X142.171 Y70.326 E1.38004
G1 X141.637 Y70.326 E.0168
G1 X173.224 Y101.913 E1.40379
G1 X173.224 Y102.448 E.0168
G1 X140.933 Y70.157 E1.43508
M204 S1000
;WIPE_START
G1 F8640
G1 X143.26 Y72.484 E-.76
;WIPE_END
G1 E-.04 F2100
G1 Z.6 F720
G1 X143.04 Y62.643 F10800
G1 Z.2 F720
G1 E.8 F2100
M204 S800
G1 F1200
G1 X137.523 Y57.126 E.24518
G1 X136.989 Y57.126 E.0168
G1 X142.336 Y62.474 E.23764
G1 X141.801 Y62.474 E.0168
G1 X136.454 Y57.126 E.23764
G1 X135.92 Y57.126 E.0168
G1 X141.267 Y62.474 E.23764
G1 X140.732 Y62.474 E.0168
G1 X135.385 Y57.126 E.23764
G1 X134.851 Y57.126 E.0168
G1 X140.264 Y62.539 E.24057
G1 X140.086 Y62.632 E.0063
G1 X139.943 Y62.754 E.00588
G1 X134.316 Y57.126 E.25009
G1 X133.782 Y57.126 E.0168
G1 X139.676 Y63.021 E.26197
G1 X139.409 Y63.288 E.01188
G1 X133.247 Y57.126 E.27384
G1 X132.713 Y57.126 E.0168
G1 X139.142 Y63.555 E.28572
G1 X138.874 Y63.823 E.01188
G1 X132.178 Y57.126 E.2976
G1 X131.644 Y57.126 E.0168
G1 X138.607 Y64.09 E.30948
G1 X138.34 Y64.357 E.01188
