; generated by PrusaSlicer 2.5.2+win64 on 2023-04-30 at 19:17:04 UTC


;
;
; 

; external perimeters extrusion width = 0.45mm
; perimeters extrusion width = 0.45mm
; infill extrusion width = 0.45mm
; solid infill extrusion width = 0.45mm
; top infill extrusion width = 0.40mm
; first layer extrusion width = 0.42mm

M73 P0 R67
M73 Q0 S67
M201 X1000 Y1000 Z200 E5000 ; sets maximum accelerations, mm/sec^2
M203 X200 Y200 Z12 E120 ; sets maximum feedrates, mm / sec
M204 P1250 R1250 T1250 ; sets acceleration (P, T) and retract acceleration (R), mm/sec^2
M205 X8.00 Y8.00 Z0.40 E4.50 ; sets the jerk limits, mm/sec
M205 S0 T0 ; sets the minimum extruding and travel feed rate, mm/sec
M107
;TYPE:Custom
M862.3 P "MK3S" ; printer model check
M862.1 P0.4 ; nozzle diameter check
M115 U3.12.2 ; tell printer latest fw version
G90 ; use absolute coordinates
M83 ; extruder relative mode
M104 S215 ; set extruder temp
M140 S60 ; set bed temp
M190 S60 ; wait for bed temp
M109 S215 ; wait for extruder temp
G28 W ; home all without mesh bed level
G80 ; mesh bed leveling

G1 Z0.2 F720
G1 Y-3 F1000 ; go outside print area
G92 E0
G1 X60 E9 F1000 ; intro line
G1 X100 E12.5 F1000 ; intro line

G92 E0
M221 S95

; Don't change E values below. Excessive value can damage the printer.
M907 E430 ; set extruder motor current
G21 ; set units to millimeters
G90 ; use absolute coordinates
M83 ; use relative distances for extrusion
M900 K0.05 ; Filament gcode LA 1.5
M900 K30 ; Filament gcode LA 1.0
M107
;LAYER_CHANGE
;Z:0.2
;HEIGHT:0.2
;BEFORE_LAYER_CHANGE
G92 E0.0
;0.2


G1 E-.8 F2100
G1 Z.4 F720
;AFTER_LAYER_CHANGE
;0.2
G1 X68.592 Y88.151 F10800
G1 Z.2 F720
G1 E.8 F2100
M204 S800
;TYPE:Skirt/Brim
;WIDTH:0.42
G1 F1200
G1 X69.097 Y87.888 E.01784
G1 X69.874 Y87.669 E.02531
G1 X70.396 Y87.623 E.01644
G1 X179.888 Y87.64 E3.43303
G1 X180.677 Y87.803 E.02527
G1 X181.405 Y88.149 E.02527
G1 X182.19 Y88.836 E.0327
G1 X182.629 Y89.511 E.02527
G1 X182.896 Y90.272 E.02527
G1 X182.975 Y91.074 E.02527
G1 X182.861 Y91.872 E.02527
G1 X182.421 Y92.863 E.03399
G1 X179.324 Y97.401 E.17226
G1 X176.091 Y101.507 E.16386
G1 X175.471 Y102.041 E.02566
G1 X146.382 Y119.402 E1.06215
G1 X145.74 Y119.667 E.02177
G1 X143.287 Y120.279 E.07926
G1 X138.22 Y121.287 E.16199
G1 X132.985 Y121.981 E.16559
G1 X127.645 Y122.334 E.1678
G1 X122.27 Y122.33 E.16852
G1 X119.592 Y122.193 E.08407
G1 X114.376 Y121.67 E.16438
G1 X109.144 Y120.798 E.16631
G1 X104.259 Y119.658 E.15728
G1 X103.618 Y119.394 E.02173
G1 X74.53 Y102.041 E1.06199
G1 X73.91 Y101.508 E.02565
G1 X72.333 Y99.585 E.078
G1 X69.144 Y95.23 E.16922
G1 X67.444 Y92.63 E.09741
G1 X67.141 Y91.881 E.02531
G1 X67.025 Y91.083 E.02531
G1 X67.102 Y90.279 E.02531
G1 X67.368 Y89.517 E.02531
G1 X67.967 Y88.661 E.03275
G1 X68.546 Y88.189 E.02343
M204 S1000
; printing object right_hand_bracket.stl id:0 copy 0
;WIPE_START
G1 F8640
G1 X69.097 Y87.888 E-.14499
G1 X69.874 Y87.669 E-.1864
G1 X70.396 Y87.623 E-.12103
G1 X71.728 Y87.623 E-.30758
;WIPE_END
G1 E-.04 F2100
G1 Z.6 F720
G1 X105.623 Y116.738 F10800
G1 Z.2 F720
G1 E.8 F2100
M204 S800
;TYPE:Perimeter
;WIDTH:0.419999
G1 F1200
G1 X105.62 Y102.924 E.43312
G1 X105.512 Y102.096 E.02619
G1 X105.219 Y101.301 E.02658
G1 X104.756 Y100.591 E.02658
G1 X104.146 Y100.001 E.02658
G1 X103.421 Y99.562 E.02658
G1 X102.617 Y99.296 E.02658
G1 X101.849 Y99.213 E.02422
G1 X76.121 Y99.213 E.80668
G1 X74.788 Y97.589 E.06586
G1 X73.254 Y95.567 E.07958
G1 X71.736 Y93.416 E.08257
G1 X70.282 Y91.213 E.08274
G1 X70.203 Y91.02 E.00656
G1 X70.268 Y90.854 E.0056
G1 X70.443 Y90.787 E.00589
G1 X179.491 Y90.787 E3.41911
G1 X179.604 Y90.806 E.00358
G1 X179.763 Y90.888 E.00561
G1 X179.792 Y91.02 E.00423
G1 X179.755 Y91.158 E.00448
G1 X178.265 Y93.413 E.08475
G1 X176.746 Y95.565 E.08259
G1 X175.212 Y97.588 E.0796
G1 X173.88 Y99.213 E.06587
G1 X148.151 Y99.213 E.80672
G1 X147.26 Y99.324 E.02817
G1 X146.464 Y99.617 E.02658
G1 X145.754 Y100.08 E.02658
G1 X145.165 Y100.69 E.02658
G1 X144.726 Y101.415 E.02658
G1 X144.459 Y102.22 E.02658
G1 X144.376 Y102.988 E.02422
G1 X144.376 Y116.746 E.43139
G1 X142.606 Y117.189 E.05722
G1 X140.197 Y117.71 E.07729
G1 X137.739 Y118.159 E.07834
G1 X135.241 Y118.534 E.07921
G1 X132.709 Y118.829 E.07991
G1 X130.153 Y119.042 E.08044
G1 X127.58 Y119.17 E.08078
G1 X124.998 Y119.213 E.08096
G1 X122.416 Y119.169 E.08095
G1 X119.843 Y119.039 E.08078
G1 X117.287 Y118.825 E.08042
G1 X114.756 Y118.529 E.0799
G1 X112.259 Y118.154 E.07919
G1 X109.802 Y117.703 E.07832
G1 X107.393 Y117.181 E.07727
G1 X105.681 Y116.752 E.05532
M204 S1000
G1 X105.246 Y117.032 F10800
M204 S800
;TYPE:External perimeter
G1 F1200
G1 X105.245 Y102.966 E.44102
G1 X105.156 Y102.221 E.02355
G1 X104.899 Y101.501 E.02394
G1 X104.489 Y100.857 E.02394
G1 X103.946 Y100.321 E.02394
G1 X103.297 Y99.918 E.02394
G1 X102.574 Y99.671 E.02394
G1 X101.849 Y99.59 E.0229
G1 X75.942 Y99.59 E.81228
G1 X74.492 Y97.823 E.07168
G1 X72.95 Y95.79 E.08001
G1 X71.424 Y93.628 E.08295
G1 X69.967 Y91.421 E.08292
G1 X69.817 Y91.063 E.01218
G1 X69.853 Y90.789 E.00867
G1 X70.012 Y90.562 E.00869
G1 X70.17 Y90.48 E.00558
G1 X70.421 Y90.41 E.00817
G1 X179.491 Y90.41 E3.41982
G1 X179.873 Y90.483 E.01218
M73 P1 R66
M73 Q1 S67
G1 X180.08 Y90.665 E.00866
G1 X180.181 Y90.923 E.00867
G1 X180.162 Y91.099 E.00557
G1 X180.082 Y91.347 E.00817
G1 X178.577 Y93.626 E.08563
G1 X177.051 Y95.788 E.08297
G1 X175.508 Y97.822 E.08003
G1 X174.059 Y99.59 E.07169
G1 X148.151 Y99.59 E.81231
G1 X147.384 Y99.68 E.02421
G1 X146.665 Y99.937 E.02394
G1 X146.021 Y100.347 E.02394
G1 X145.484 Y100.89 E.02394
G1 X145.082 Y101.539 E.02394
G1 X144.834 Y102.262 E.02394
G1 X144.754 Y102.988 E.0229
G1 X144.754 Y117.041 E.44062
G1 X142.692 Y117.556 E.06664
G1 X140.271 Y118.08 E.07767
G1 X137.801 Y118.531 E.07872
G1 X135.291 Y118.907 E.07959
G1 X132.747 Y119.204 E.0803
G1 X130.178 Y119.418 E.08083
G1 X127.592 Y119.547 E.08117
G1 X124.998 Y119.59 E.08135
G1 X122.404 Y119.546 E.08135
G1 X119.818 Y119.415 E.08117
G1 X117.25 Y119.2 E.08082
G1 X114.706 Y118.903 E.08029
G1 X112.197 Y118.526 E.07958
G1 X109.728 Y118.073 E.0787
G1 X107.307 Y117.548 E.07765
G1 X105.304 Y117.047 E.06474
M204 S1000
G1 X105.472 Y116.702 F10800
;WIPE_START
G1 F8640
G1 X105.29 Y113.755 E-.76
;WIPE_END
G1 E-.04 F2100
G1 Z.6 F720
G1 X179.387 Y91.407 F10800
G1 Z.2 F720
G1 E.8 F2100
M204 S800
;TYPE:Solid infill
;WIDTH:0.420668
G1 F1200
G1 X179.106 Y91.126 E.01246
G1 X178.572 Y91.126 E.01678
G1 X179.052 Y91.606 E.02131
G1 X178.839 Y91.928 E.01211
G1 X178.038 Y91.126 E.0356
G1 X177.503 Y91.126 E.01678
G1 X178.627 Y92.25 E.0499
G1 X178.414 Y92.571 E.01211
G1 X176.969 Y91.126 E.06419
G1 X176.435 Y91.126 E.01678
G1 X178.202 Y92.893 E.07848
G1 X177.989 Y93.215 E.01211
G1 X175.901 Y91.126 E.09277
G1 X175.367 Y91.126 E.01678
G1 X177.768 Y93.528 E.10669
G1 X177.547 Y93.841 E.01204
G1 X174.832 Y91.126 E.1206
G1 X174.298 Y91.126 E.01678
G1 X177.326 Y94.155 E.13452
G1 X177.105 Y94.468 E.01204
G1 X173.764 Y91.126 E.14843
G1 X173.23 Y91.126 E.01678
G1 X176.884 Y94.781 E.16234
G1 X176.663 Y95.094 E.01204
G1 X172.696 Y91.126 E.17625
G1 X172.161 Y91.126 E.01678
G1 X176.441 Y95.406 E.19011
G1 X176.211 Y95.71 E.01198
G1 X171.627 Y91.126 E.2036
G1 X171.093 Y91.126 E.01678
G1 X175.98 Y96.014 E.2171
G1 X175.75 Y96.318 E.01198
G1 X170.559 Y91.126 E.2306
G1 X170.024 Y91.126 E.01678
G1 X175.52 Y96.621 E.24409
G1 X175.289 Y96.925 E.01198
G1 X169.49 Y91.126 E.25759
G1 X168.956 Y91.126 E.01678
G1 X175.059 Y97.229 E.27108
G1 X174.823 Y97.528 E.01195
G1 X168.422 Y91.126 E.28435
G1 X167.888 Y91.126 E.01678
G1 X174.582 Y97.821 E.29739
G1 X174.342 Y98.115 E.01192
G1 X167.353 Y91.126 E.31043
G1 X166.819 Y91.126 E.01678
G1 X174.101 Y98.408 E.32347
G1 X173.86 Y98.702 E.01192
G1 X166.285 Y91.126 E.3365
G1 X165.751 Y91.126 E.01678
G1 X173.498 Y98.874 E.34413
G1 X172.964 Y98.874 E.01678
G1 X165.217 Y91.126 E.34413
G1 X164.682 Y91.126 E.01678
G1 X172.429 Y98.874 E.34413
G1 X171.895 Y98.874 E.01678
M73 Q1 S66
G1 X164.148 Y91.126 E.34413
G1 X163.614 Y91.126 E.01678
G1 X171.361 Y98.874 E.34413
G1 X170.827 Y98.874 E.01678
G1 X163.08 Y91.126 E.34413
G1 X162.545 Y91.126 E.01678
G1 X170.293 Y98.874 E.34413
G1 X169.758 Y98.874 E.01678
G1 X162.011 Y91.126 E.34413
G1 X161.477 Y91.126 E.01678
G1 X169.224 Y98.874 E.34413
G1 X168.69 Y98.874 E.01678
G1 X160.943 Y91.126 E.34413
G1 X160.409 Y91.126 E.01678
G1 X168.156 Y98.874 E.34413
G1 X167.621 Y98.874 E.01678
G1 X159.874 Y91.126 E.34413
G1 X159.34 Y91.126 E.01678
G1 X167.087 Y98.874 E.34413
G1 X166.553 Y98.874 E.01678
G1 X158.806 Y91.126 E.34413
G1 X158.272 Y91.126 E.01678
G1 X166.019 Y98.874 E.34413
G1 X165.485 Y98.874 E.01678
G1 X157.737 Y91.126 E.34413
G1 X157.203 Y91.126 E.01678
G1 X164.95 Y98.874 E.34413
G1 X164.416 Y98.874 E.01678
G1 X156.669 Y91.126 E.34413
G1 X156.135 Y91.126 E.01678
G1 X163.882 Y98.874 E.34413
G1 X163.348 Y98.874 E.01678
G1 X155.601 Y91.126 E.34413
G1 X155.066 Y91.126 E.01678
G1 X162.814 Y98.874 E.34413
G1 X162.279 Y98.874 E.01678
G1 X154.532 Y91.126 E.34413
G1 X153.998 Y91.126 E.01678
G1 X161.745 Y98.874 E.34413
G1 X161.211 Y98.874 E.01678
G1 X153.464 Y91.126 E.34413
G1 X152.93 Y91.126 E.01678
G1 X160.677 Y98.874 E.34413
G1 X160.142 Y98.874 E.01678
G1 X152.395 Y91.126 E.34413
G1 X151.861 Y91.126 E.01678
G1 X159.608 Y98.874 E.34413
G1 X159.074 Y98.874 E.01678
G1 X151.327 Y91.126 E.34413
G1 X150.793 Y91.126 E.01678
G1 X158.54 Y98.874 E.34413
G1 X158.006 Y98.874 E.01678
G1 X150.258 Y91.126 E.34413
G1 X149.724 Y91.126 E.01678
G1 X157.471 Y98.874 E.34413
G1 X156.937 Y98.874 E.01678
G1 X149.19 Y91.126 E.34413
G1 X148.656 Y91.126 E.01678
G1 X156.403 Y98.874 E.34413
G1 X155.869 Y98.874 E.01678
G1 X148.122 Y91.126 E.34413
G1 X147.587 Y91.126 E.01678
G1 X155.334 Y98.874 E.34413
G1 X154.8 Y98.874 E.01678
G1 X147.053 Y91.126 E.34413
G1 X146.519 Y91.126 E.01678
G1 X154.266 Y98.874 E.34413
G1 X153.732 Y98.874 E.01678
G1 X145.985 Y91.126 E.34413
G1 X145.451 Y91.126 E.01678
G1 X153.198 Y98.874 E.34413
G1 X152.663 Y98.874 E.01678
G1 X144.916 Y91.126 E.34413
G1 X144.382 Y91.126 E.01678
G1 X152.129 Y98.874 E.34413
G1 X151.595 Y98.874 E.01678
G1 X143.848 Y91.126 E.34413
G1 X143.314 Y91.126 E.01678
G1 X151.061 Y98.874 E.34413
G1 X150.527 Y98.874 E.01678
M73 Q2 S66
G1 X142.779 Y91.126 E.34413
G1 X142.245 Y91.126 E.01678
M73 P2 R66
G1 X149.992 Y98.874 E.34413
G1 X149.458 Y98.874 E.01678
G1 X141.711 Y91.126 E.34413
G1 X141.177 Y91.126 E.01678
G1 X148.924 Y98.874 E.34413
G1 X148.39 Y98.874 E.01678
G1 X140.643 Y91.126 E.34413
G1 X140.108 Y91.126 E.01678
G1 X147.884 Y98.902 E.34538
G1 X147.402 Y98.954 E.01522
G1 X139.574 Y91.126 E.34771
G1 X139.04 Y91.126 E.01678
G1 X146.982 Y99.068 E.35279
G1 X146.582 Y99.203 E.01325
G1 X138.506 Y91.126 E.35877
G1 X137.971 Y91.126 E.01678
G1 X146.217 Y99.372 E.36628
G1 X145.891 Y99.58 E.01215
G1 X137.437 Y91.126 E.37552
G1 X136.903 Y91.126 E.01678
G1 X145.569 Y99.792 E.38494
G1 X145.302 Y100.059 E.01187
G1 X136.369 Y91.126 E.39681
G1 X135.835 Y91.126 E.01678
G1 X145.035 Y100.327 E.40868
G1 X144.934 Y100.428 E.00448
G1 X144.806 Y100.632 E.00758
G1 X135.3 Y91.126 E.42224
G1 X134.766 Y91.126 E.01678
G1 X144.6 Y100.96 E.43682
G1 X144.443 Y101.211 E.0093
G1 X144.409 Y101.304 E.0031
G1 X134.232 Y91.126 E.45209
G1 X133.698 Y91.126 E.01678
G1 X144.269 Y101.698 E.46959
G1 X144.139 Y102.102 E.01334
G1 X133.164 Y91.126 E.48755
G1 X132.629 Y91.126 E.01678
G1 X144.08 Y102.577 E.50864
G1 X144.037 Y103.068 E.01549
G1 X132.095 Y91.126 E.53047
G1 X131.561 Y91.126 E.01678
G1 X144.037 Y103.603 E.5542
G1 X144.037 Y104.137 E.01678
G1 X131.027 Y91.126 E.57793
G1 X130.492 Y91.126 E.01678
M73 P2 R65
G1 X144.037 Y104.671 E.60166
G1 X144.037 Y105.205 E.01678
G1 X129.958 Y91.126 E.62539
G1 X129.424 Y91.126 E.01678
G1 X144.037 Y105.74 E.64912
G1 X144.037 Y106.274 E.01678
G1 X128.89 Y91.126 E.67285
G1 X128.356 Y91.126 E.01678
G1 X144.037 Y106.808 E.69658
G1 X144.037 Y107.342 E.01678
G1 X127.821 Y91.126 E.72031
G1 X127.287 Y91.126 E.01678
G1 X144.037 Y107.876 E.74404
G1 X144.037 Y108.411 E.01678
G1 X126.753 Y91.126 E.76777
G1 X126.219 Y91.126 E.01678
G1 X144.037 Y108.945 E.7915
G1 X144.037 Y109.479 E.01678
G1 X125.685 Y91.126 E.81523
G1 X125.15 Y91.126 E.01678
G1 X144.037 Y110.013 E.83896
G1 X144.037 Y110.548 E.01678
G1 X124.616 Y91.126 E.86269
G1 X124.082 Y91.126 E.01678
G1 X144.037 Y111.082 E.88642
G1 X144.037 Y111.616 E.01678
G1 X123.548 Y91.126 E.91015
G1 X123.013 Y91.126 E.01678
G1 X144.037 Y112.15 E.93388
G1 X144.037 Y112.684 E.01678
G1 X122.479 Y91.126 E.95761
G1 X121.945 Y91.126 E.01678
M73 Q2 S65
G1 X144.037 Y113.219 E.98134
G1 X144.037 Y113.753 E.01678
G1 X121.411 Y91.126 E1.00507
G1 X120.877 Y91.126 E.01678
G1 X144.037 Y114.287 E1.0288
G1 X144.037 Y114.821 E.01678
M73 P3 R65
M73 Q3 S65
G1 X120.342 Y91.126 E1.05253
G1 X119.808 Y91.126 E.01678
G1 X144.037 Y115.355 E1.07626
G1 X144.037 Y115.89 E.01678
G1 X119.274 Y91.126 E1.09999
G1 X118.74 Y91.126 E.01678
G1 X144.037 Y116.424 E1.12372
G1 X144.037 Y116.481 E.0018
G1 X143.656 Y116.577 E.01235
G1 X118.205 Y91.126 E1.1305
G1 X117.671 Y91.126 E.01678
G1 X143.228 Y116.683 E1.13524
G1 X142.801 Y116.79 E.01384
G1 X117.137 Y91.126 E1.13999
G1 X116.603 Y91.126 E.01678
G1 X142.369 Y116.893 E1.14454
G1 X141.93 Y116.988 E.01411
G1 X116.069 Y91.126 E1.14876
G1 X115.534 Y91.126 E.01678
G1 X141.491 Y117.083 E1.15298
G1 X141.051 Y117.178 E.01411
G1 X115 Y91.126 E1.1572
G1 X114.466 Y91.126 E.01678
G1 X140.612 Y117.273 E1.16142
G1 X140.173 Y117.368 E.01411
G1 X113.932 Y91.126 E1.16565
G1 X113.398 Y91.126 E.01678
G1 X139.723 Y117.452 E1.16937
G1 X139.271 Y117.534 E.01442
G1 X112.863 Y91.126 E1.17304
G1 X112.329 Y91.126 E.01678
G1 X138.819 Y117.617 E1.17671
G1 X138.368 Y117.699 E.01442
G1 X111.795 Y91.126 E1.18038
G1 X111.261 Y91.126 E.01678
G1 X137.916 Y117.782 E1.18405
G1 X137.458 Y117.858 E.01458
G1 X110.726 Y91.126 E1.18744
G1 X110.192 Y91.126 E.01678
M73 P3 R64
G1 X136.994 Y117.928 E1.19053
G1 X136.529 Y117.998 E.01476
G1 X109.658 Y91.126 E1.19362
G1 X109.124 Y91.126 E.01678
G1 X136.064 Y118.067 E1.19671
G1 X135.6 Y118.137 E.01476
M73 P4 R64
M73 Q4 S65
G1 X108.59 Y91.126 E1.1998
G1 X108.055 Y91.126 E.01678
G1 X135.133 Y118.204 E1.20281
G1 X134.655 Y118.26 E.01513
G1 X107.521 Y91.126 E1.20529
G1 X106.987 Y91.126 E.01678
G1 X134.177 Y118.316 E1.20777
G1 X133.698 Y118.372 E.01513
G1 X106.453 Y91.126 E1.21025
G1 X105.919 Y91.126 E.01678
G1 X133.22 Y118.428 E1.21272
G1 X132.741 Y118.483 E.01513
G1 X105.384 Y91.126 E1.2152
G1 X104.85 Y91.126 E.01678
M73 Q4 S64
G1 X132.25 Y118.526 E1.21711
G1 X131.757 Y118.568 E.01554
G1 X104.316 Y91.126 E1.21894
G1 X103.782 Y91.126 E.01678
G1 X131.264 Y118.609 E1.22076
G1 X130.771 Y118.65 E.01554
G1 X103.247 Y91.126 E1.22259
G1 X102.713 Y91.126 E.01678
G1 X130.278 Y118.691 E1.22441
G1 X129.773 Y118.721 E.01586
G1 X102.179 Y91.126 E1.22575
G1 X101.645 Y91.126 E.01678
G1 X129.265 Y118.746 E1.22688
G1 X128.756 Y118.772 E.016
G1 X101.111 Y91.126 E1.22801
G1 X100.576 Y91.126 E.01678
G1 X128.247 Y118.797 E1.22914
G1 X127.738 Y118.823 E.016
G1 X100.042 Y91.126 E1.23027
G1 X99.508 Y91.126 E.01678
G1 X127.218 Y118.837 E1.2309
G1 X126.693 Y118.845 E.01651
G1 X98.974 Y91.126 E1.23129
G1 X98.439 Y91.126 E.01678
G1 X126.167 Y118.854 E1.23167
G1 X125.642 Y118.863 E.01651
M73 P5 R64
G1 X97.905 Y91.126 E1.23206
G1 X97.371 Y91.126 E.01678
M73 Q5 S64
G1 X125.116 Y118.871 E1.23244
G1 X124.998 Y118.873 E.00371
G1 X124.577 Y118.866 E.01324
G1 X96.837 Y91.126 E1.23221
G1 X96.303 Y91.126 E.01678
G1 X124.033 Y118.857 E1.2318
G1 X123.49 Y118.848 E.01707
G1 X95.768 Y91.126 E1.23139
G1 X95.234 Y91.126 E.01678
G1 X103.251 Y99.143 E.35611
G1 X103.541 Y99.245 E.00966
G1 X103.709 Y99.326 E.00585
G1 X104.412 Y99.773 E.02617
G1 X105.066 Y100.428 E.02905
G1 X105.557 Y101.211 E.02906
G1 X105.687 Y101.579 E.01226
G1 X122.946 Y118.839 E.76666
G1 X122.402 Y118.828 E.0171
G1 X105.887 Y102.313 E.73361
G1 X105.958 Y102.919 E.01915
G1 X121.839 Y118.8 E.70546
G1 X121.277 Y118.772 E.01769
M73 P5 R63
G1 X105.958 Y103.453 E.68046
G1 X105.958 Y103.987 E.01679
G1 X120.714 Y118.743 E.65546
G1 X120.152 Y118.715 E.01769
G1 X105.958 Y104.522 E.63046
G1 X105.959 Y105.056 E.01679
