; generated by PrusaSlicer 2.5.2+win64 on 2023-05-01 at 01:49:38 UTC


;
;
; 

; external perimeters extrusion width = 0.45mm
; perimeters extrusion width = 0.45mm
; infill extrusion width = 0.45mm
; solid infill extrusion width = 0.45mm
; top infill extrusion width = 0.40mm
; first layer extrusion width = 0.42mm

M73 P0 R73
M73 Q0 S74
M201 X1000 Y1000 Z200 E5000 ; sets maximum accelerations, mm/sec^2
M203 X200 Y200 Z12 E120 ; sets maximum feedrates, mm / sec
M204 P1250 R1250 T1250 ; sets acceleration (P, T) and retract acceleration (R), mm/sec^2
M205 X8.00 Y8.00 Z0.40 E4.50 ; sets the jerk limits, mm/sec
M205 S0 T0 ; sets the minimum extruding and travel feed rate, mm/sec
M107
;TYPE:Custom
M862.3 P "MK3S" ; printer model check
M862.1 P0.4 ; nozzle diameter check
M115 U3.12.2 ; tell printer latest fw version
G90 ; use absolute coordinates
M83 ; extruder relative mode
M104 S215 ; set extruder temp
M140 S60 ; set bed temp
M190 S60 ; wait for bed temp
M109 S215 ; wait for extruder temp
G28 W ; home all without mesh bed level
G80 ; mesh bed leveling

G1 Z0.2 F720
G1 Y-3 F1000 ; go outside print area
G92 E0
G1 X60 E9 F1000 ; intro line
G1 X100 E12.5 F1000 ; intro line

G92 E0
M221 S95

; Don't change E values below. Excessive value can damage the printer.
M907 E430 ; set extruder motor current
G21 ; set units to millimeters
G90 ; use absolute coordinates
M83 ; use relative distances for extrusion
M900 K0.05 ; Filament gcode LA 1.5
M900 K30 ; Filament gcode LA 1.0
M107
;LAYER_CHANGE
;Z:0.2
;HEIGHT:0.2
;BEFORE_LAYER_CHANGE
G92 E0.0
;0.2


G1 E-.8 F2100
G1 Z.4 F720
;AFTER_LAYER_CHANGE
;0.2
G1 X98.689 Y95.306 F10800
G1 Z.2 F720
G1 E.8 F2100
M204 S800
;TYPE:Skirt/Brim
;WIDTH:0.42
G1 F1200
G1 X100.122 Y94.301 E.05486
G1 X130.672 Y86.991 E.98491
G1 X131.225 Y86.926 E.01746
G1 X136.225 Y86.926 E.15677
G1 X137.936 Y87.653 E.05829
G1 X151.036 Y101.237 E.59172
G1 X151.702 Y102.887 E.05579
G1 X151.702 Y107.887 E.15677
G1 X151.031 Y109.543 E.05601
G1 X137.931 Y123.043 E.58981
G1 X136.225 Y123.765 E.05808
G1 X116.675 Y123.765 E.61298
G1 X115.213 Y123.705 E.04587
G1 X113.848 Y123.544 E.04309
G1 X112.499 Y123.282 E.04308
G1 X111.159 Y122.915 E.04359
G1 X108.782 Y121.982 E.08005
G1 X107.564 Y121.346 E.04309
G1 X106.25 Y120.52 E.04865
G1 X105.149 Y119.699 E.04309
G1 X104.111 Y118.797 E.04309
G1 X102.364 Y116.914 E.08055
G1 X101.543 Y115.812 E.04309
G1 X100.806 Y114.652 E.04309
G1 X100.075 Y113.268 E.04908
G1 X99.575 Y112.118 E.0393
G1 X99.098 Y110.749 E.04547
G1 X98.513 Y108.186 E.08243
G1 X98.352 Y106.794 E.04394
G1 X98.299 Y105.454 E.04205
G1 X98.298 Y96.613 E.27721
G1 X98.672 Y95.363 E.0409
M204 S1000
; printing object top_head_bracket v1.stl id:0 copy 0
;WIPE_START
G1 F8640
G1 X100.122 Y94.301 E-.41497
G1 X101.575 Y93.953 E-.34503
;WIPE_END
G1 E-.04 F2100
G1 Z.6 F720
G1 X135.463 Y107.574 F10800
G1 Z.2 F720
G1 E.8 F2100
M204 S800
;TYPE:Perimeter
;WIDTH:0.419999
G1 F1200
G1 X135.438 Y107.666 E.003
G1 X135.438 Y120.6 E.40555
G1 X116.69 Y120.6 E.58784
G1 X115.538 Y120.557 E.03613
G1 X114.408 Y120.43 E.03567
G1 X113.29 Y120.218 E.03567
G1 X112.191 Y119.924 E.03567
G1 X111.117 Y119.548 E.03567
G1 X110.075 Y119.093 E.03567
G1 X109.069 Y118.562 E.03567
G1 X108.106 Y117.957 E.03567
G1 X107.19 Y117.281 E.03567
G1 X106.328 Y116.539 E.03567
G1 X105.524 Y115.735 E.03567
G1 X104.781 Y114.872 E.03567
G1 X104.106 Y113.957 E.03567
G1 X103.501 Y112.994 E.03567
G1 X102.969 Y111.987 E.03569
G1 X102.514 Y110.945 E.03564
G1 X102.138 Y109.871 E.03567
G1 X101.844 Y108.773 E.03567
G1 X101.633 Y107.655 E.03567
G1 X101.505 Y106.524 E.03567
G1 X101.462 Y105.373 E.03613
G1 X101.462 Y97.4 E.24999
G1 X104.888 Y97.4 E.10741
G1 X104.888 Y103.617 E.19495
G1 X104.935 Y104.739 E.03519
G1 X105.104 Y106.004 E.04001
G1 X105.334 Y107.061 E.03393
G1 X105.555 Y107.782 E.02365
G1 X105.835 Y108.561 E.02596
G1 X106.153 Y109.32 E.02578
G1 X106.618 Y110.24 E.03233
G1 X107.021 Y110.895 E.02414
G1 X107.475 Y111.561 E.02526
G1 X107.963 Y112.207 E.02536
G1 X108.676 Y113.014 E.03377
G1 X109.189 Y113.505 E.02228
G1 X109.792 Y114.038 E.02525
G1 X110.423 Y114.543 E.02532
G1 X111.36 Y115.173 E.03541
G1 X111.942 Y115.499 E.02091
G1 X112.669 Y115.87 E.0256
G1 X113.42 Y116.207 E.02582
G1 X114.502 Y116.587 E.03593
G1 X115.16 Y116.758 E.02133
G1 X115.983 Y116.938 E.02641
G1 X116.872 Y117.078 E.02823
G1 X117.898 Y117.163 E.03228
G1 X119.05 Y117.161 E.03609
G1 X120.149 Y117.067 E.03459
G1 X121.284 Y116.875 E.03609
G1 X122.445 Y116.573 E.03762
G1 X123.541 Y116.182 E.03649
G1 X124.577 Y115.711 E.03567
G1 X125.54 Y115.173 E.03459
G1 X126.534 Y114.502 E.0376
G1 X127.428 Y113.777 E.03609
G1 X128.258 Y112.979 E.03609
G1 X128.986 Y112.151 E.03459
G1 X129.699 Y111.187 E.0376
G1 X130.301 Y110.206 E.03609
G1 X130.818 Y109.176 E.03611
G1 X131.233 Y108.14 E.03499
G1 X131.558 Y107.085 E.03461
G1 X131.819 Y105.889 E.0384
G1 X131.965 Y104.739 E.03633
G1 X132.012 Y103.617 E.03521
G1 X132.012 Y90.806 E.40167
G1 X135.438 Y90.806 E.10741
G1 X135.438 Y103.109 E.38574
G1 X135.446 Y103.207 E.00308
M73 Q0 S73
G1 X135.576 Y103.479 E.00946
G1 X135.798 Y103.636 E.00852
G1 X136.004 Y103.675 E.00656
G1 X148.538 Y103.675 E.39301
G1 X148.538 Y107.1 E.10741
G1 X136.004 Y107.1 E.39301
G1 X135.954 Y107.103 E.00155
G1 X135.656 Y107.22 E.01006
G1 X135.516 Y107.38 E.00665
G1 X135.479 Y107.516 E.00443
M204 S1000
G1 X135.815 Y107.664 F10800
M204 S800
;TYPE:External perimeter
G1 F1200
G1 X135.815 Y120.978 E.41745
G1 X116.683 Y120.978 E.59988
G1 X115.51 Y120.934 E.03679
G1 X114.351 Y120.803 E.03655
G1 X113.206 Y120.586 E.03655
G1 X112.08 Y120.285 E.03655
G1 X110.979 Y119.9 E.03656
G1 X109.911 Y119.433 E.03655
G1 X108.88 Y118.889 E.03655
G1 X107.893 Y118.268 E.03655
G1 X106.955 Y117.576 E.03655
G1 X106.071 Y116.816 E.03655
G1 X105.247 Y115.991 E.03655
G1 X104.486 Y115.108 E.03655
G1 X103.794 Y114.169 E.03655
G1 X103.174 Y113.182 E.03655
G1 X102.629 Y112.151 E.03658
G1 X102.163 Y111.083 E.03653
G1 X101.778 Y109.983 E.03656
G1 X101.476 Y108.857 E.03655
G1 X101.259 Y107.711 E.03655
G1 X101.129 Y106.552 E.03656
G1 X101.085 Y105.38 E.03679
G1 X101.085 Y97.022 E.26204
G1 X105.265 Y97.022 E.13106
G1 X105.265 Y103.617 E.20677
G1 X105.312 Y104.723 E.03469
G1 X105.472 Y105.924 E.038
G1 X105.695 Y106.951 E.03293
G1 X105.916 Y107.672 E.02365
G1 X106.185 Y108.421 E.02496
G1 X106.489 Y109.15 E.02479
G1 X106.939 Y110.042 E.03133
G1 X107.343 Y110.698 E.02414
G1 X107.778 Y111.337 E.02424
G1 X108.246 Y111.958 E.02437
G1 X108.937 Y112.742 E.03276
G1 X109.45 Y113.233 E.02228
G1 X110.029 Y113.745 E.02424
G1 X110.634 Y114.23 E.02432
G1 X111.544 Y114.844 E.03441
G1 X112.126 Y115.169 E.02091
G1 X112.825 Y115.526 E.0246
G1 X113.546 Y115.851 E.02481
G1 X114.597 Y116.222 E.03493
G1 X115.255 Y116.393 E.02133
G1 X116.047 Y116.566 E.0254
G1 X116.904 Y116.702 E.02722
G1 X117.898 Y116.786 E.03128
G1 X119.018 Y116.785 E.03509
G1 X120.117 Y116.692 E.03459
G1 X121.22 Y116.503 E.03509
G1 X122.319 Y116.217 E.0356
G1 X123.386 Y115.838 E.0355
G1 X124.393 Y115.382 E.03467
G1 X125.356 Y114.844 E.03459
G1 X126.284 Y114.218 E.03509
G1 X127.167 Y113.505 E.03559
G1 X127.975 Y112.73 E.03509
G1 X128.713 Y111.889 E.03509
G1 X129.378 Y110.989 E.03509
G1 X129.957 Y110.05 E.03459
G1 X130.468 Y109.036 E.0356
G1 X130.888 Y107.985 E.03549
G1 X131.198 Y106.975 E.03312
G1 X131.445 Y105.841 E.0364
G1 X131.588 Y104.723 E.03532
G1 X131.635 Y103.617 E.03471
G1 X131.635 Y90.429 E.41349
G1 X135.815 Y90.429 E.13106
G1 X135.815 Y103.109 E.39756
G1 X135.861 Y103.232 E.00413
G1 X136.004 Y103.297 E.00491
G1 X148.915 Y103.297 E.40483
G1 X148.915 Y107.478 E.13106
G1 X136.004 Y107.478 E.40483
G1 X135.888 Y107.517 E.00384
G1 X135.842 Y107.61 E.00323
M204 S1000
G1 X135.428 Y107.766 F10800
;WIPE_START
G1 F8640
G1 X135.835 Y110.901 E-.76
;WIPE_END
G1 E-.04 F2100
G1 Z.6 F720
G1 X147.603 Y103.844 F10800
G1 Z.2 F720
G1 E.8 F2100
M204 S800
;TYPE:Solid infill
;WIDTH:0.421148
G1 F1200
G1 X148.199 Y104.439 E.02647
G1 X148.199 Y104.974 E.01682
G1 X147.238 Y104.014 E.04272
G1 X146.703 Y104.014 E.01683
G1 X148.199 Y105.509 E.06652
G1 X148.199 Y106.044 E.01682
G1 X146.168 Y104.013 E.09031
G1 X145.633 Y104.013 E.01683
G1 X148.199 Y106.579 E.11411
G1 X148.199 Y106.761 E.00573
G1 X147.846 Y106.761 E.01109
G1 X145.098 Y104.013 E.12222
G1 X144.563 Y104.013 E.01683
G1 X147.311 Y106.761 E.12222
G1 X146.776 Y106.761 E.01682
G1 X144.028 Y104.013 E.12223
G1 X143.493 Y104.013 E.01683
G1 X146.241 Y106.761 E.12223
G1 X145.706 Y106.761 E.01682
G1 X142.958 Y104.013 E.12224
G1 X142.423 Y104.013 E.01683
G1 X145.171 Y106.761 E.12224
G1 X144.636 Y106.761 E.01682
G1 X141.888 Y104.012 E.12225
G1 X141.353 Y104.012 E.01683
G1 X144.102 Y106.761 E.12225
G1 X143.567 Y106.761 E.01682
G1 X140.818 Y104.012 E.12226
G1 X140.283 Y104.012 E.01683
G1 X143.032 Y106.761 E.12227
G1 X142.497 Y106.761 E.01682
G1 X139.748 Y104.012 E.12227
G1 X139.213 Y104.012 E.01683
G1 X141.962 Y106.761 E.12228
G1 X141.427 Y106.761 E.01682
G1 X138.678 Y104.012 E.12228
G1 X138.143 Y104.012 E.01683
G1 X140.892 Y106.761 E.12229
G1 X140.357 Y106.761 E.01682
G1 X137.608 Y104.011 E.12229
G1 X137.073 Y104.011 E.01683
G1 X139.822 Y106.761 E.1223
G1 X139.288 Y106.761 E.01682
G1 X136.368 Y103.841 E.12985
M204 S1000
;WIPE_START
G1 F8640
G1 X138.695 Y106.169 E-.76
;WIPE_END
G1 E-.04 F2100
G1 Z.6 F720
G1 X135.268 Y91.509 F10800
G1 Z.2 F720
G1 E.8 F2100
M204 S800
G1 F1200
G1 X134.905 Y91.146 E.01615
G1 X134.37 Y91.146 E.01682
G1 X135.099 Y91.874 E.0324
G1 X135.099 Y92.409 E.01682
G1 X133.835 Y91.146 E.05619
G1 X133.3 Y91.146 E.01682
G1 X135.099 Y92.944 E.07998
G1 X135.099 Y93.479 E.01682
G1 X132.765 Y91.146 E.10377
G1 X132.351 Y91.146 E.01302
G1 X132.351 Y91.267 E.0038
G1 X135.099 Y94.014 E.12218
G1 X135.099 Y94.549 E.01682
G1 X132.351 Y91.802 E.12218
G1 X132.351 Y92.336 E.01682
G1 X135.099 Y95.084 E.12218
G1 X135.099 Y95.618 E.01682
G1 X132.351 Y92.871 E.12218
G1 X132.351 Y93.406 E.01682
G1 X135.099 Y96.153 E.12218
G1 X135.099 Y96.688 E.01682
G1 X132.351 Y93.941 E.12218
G1 X132.351 Y94.476 E.01682
G1 X135.099 Y97.223 E.12218
G1 X135.099 Y97.758 E.01682
G1 X132.351 Y95.011 E.12218
G1 X132.351 Y95.546 E.01682
G1 X135.099 Y98.293 E.12218
G1 X135.099 Y98.828 E.01682
G1 X132.351 Y96.081 E.12218
G1 X132.351 Y96.616 E.01682
G1 X135.099 Y99.363 E.12218
G1 X135.099 Y99.898 E.01682
G1 X132.351 Y97.15 E.12218
G1 X132.351 Y97.685 E.01682
G1 X135.099 Y100.432 E.12218
G1 X135.099 Y100.967 E.01682
G1 X132.351 Y98.22 E.12218
G1 X132.351 Y98.755 E.01682
G1 X135.099 Y101.502 E.12218
G1 X135.099 Y102.037 E.01682
G1 X132.351 Y99.29 E.12218
G1 X132.351 Y99.825 E.01682
G1 X135.268 Y102.742 E.12973
M204 S1000
;WIPE_START
G1 F8640
G1 X132.941 Y100.414 E-.76
;WIPE_END
G1 E-.04 F2100
G1 Z.6 F720
G1 X132.182 Y100.19 F10800
G1 Z.2 F720
G1 E.8 F2100
M204 S800
G1 F1200
G1 X135.099 Y103.107 E.12973
G1 X135.13 Y103.353 E.0078
G1 X135.312 Y103.695 E.01219
G1 X135.449 Y103.826 E.00596
G1 X135.674 Y103.953 E.00813
G1 X135.92 Y104.011 E.00796
G1 X136.003 Y104.011 E.00259
G1 X138.753 Y106.761 E.12231
G1 X138.218 Y106.761 E.01682
M73 Q1 S73
G1 X132.351 Y100.895 E.26091
G1 X132.351 Y101.43 E.01682
M73 P1 R73
G1 X137.683 Y106.761 E.23712
G1 X137.148 Y106.761 E.01682
G1 X132.351 Y101.965 E.21333
G1 X132.351 Y102.499 E.01682
G1 X136.613 Y106.761 E.18954
G1 X136.078 Y106.761 E.01682
G1 X132.351 Y103.034 E.16575
G1 X132.351 Y103.569 E.01682
G1 X135.629 Y106.847 E.14578
G1 X135.443 Y106.953 E.00673
G1 X135.33 Y107.082 E.00542
G1 X132.331 Y104.084 E.13337
G1 X132.308 Y104.596 E.01613
G1 X135.137 Y107.424 E.1258
G1 X135.099 Y107.647 E.00712
G1 X135.099 Y107.921 E.00861
G1 X132.264 Y105.086 E.12608
G1 X132.202 Y105.559 E.015
G1 X135.099 Y108.456 E.12883
G1 X135.099 Y108.991 E.01682
G1 X132.138 Y106.03 E.13169
G1 X132.043 Y106.47 E.01415
G1 X135.099 Y109.526 E.13591
G1 X135.099 Y110.061 E.01682
G1 X131.948 Y106.91 E.14013
G1 X131.836 Y107.333 E.01377
G1 X135.099 Y110.596 E.1451
G1 X135.099 Y111.13 E.01682
G1 X131.711 Y107.743 E.15066
G1 X131.586 Y108.153 E.01348
G1 X135.099 Y111.665 E.15622
G1 X135.099 Y112.2 E.01682
G1 X131.437 Y108.539 E.16285
G1 X131.285 Y108.921 E.01295
G1 X135.099 Y112.735 E.16963
G1 X135.099 Y113.27 E.01682
G1 X131.132 Y109.304 E.1764
G1 X130.953 Y109.66 E.01253
G1 X135.099 Y113.805 E.18436
G1 X135.099 Y114.34 E.01682
G1 X130.774 Y110.015 E.19234
G1 X130.595 Y110.371 E.01252
G1 X135.099 Y114.875 E.20031
G1 X135.099 Y115.41 E.01682
G1 X130.394 Y110.705 E.20922
G1 X130.191 Y111.037 E.01223
G1 X135.099 Y115.944 E.21829
G1 X135.099 Y116.479 E.01682
G1 X129.987 Y111.368 E.22736
G1 X129.76 Y111.676 E.01203
G1 X135.099 Y117.014 E.23744
G1 X135.099 Y117.549 E.01682
G1 X129.533 Y111.984 E.24752
G1 X129.307 Y112.292 E.01203
G1 X135.099 Y118.084 E.25761
G1 X135.099 Y118.619 E.01682
G1 X129.059 Y112.579 E.26862
G1 X128.809 Y112.864 E.01192
G1 X135.099 Y119.154 E.27973
G1 X135.099 Y119.689 E.01682
G1 X128.559 Y113.15 E.29084
G1 X128.292 Y113.417 E.0119
G1 X135.099 Y120.224 E.30275
G1 X135.099 Y120.261 E.00118
G1 X134.601 Y120.261 E.01564
G1 X128.019 Y113.679 E.29275
G1 X127.747 Y113.941 E.0119
G1 X134.066 Y120.261 E.28108
G1 X133.531 Y120.261 E.01682
G1 X127.459 Y114.188 E.27009
G1 X127.163 Y114.428 E.01196
G1 X132.996 Y120.261 E.25944
G1 X132.462 Y120.261 E.01682
G1 X126.868 Y114.668 E.24878
G1 X126.559 Y114.894 E.01204
M73 P1 R72
G1 X131.927 Y120.261 E.23872
G1 X131.392 Y120.261 E.01682
G1 X126.241 Y115.11 E.22909
G1 X125.922 Y115.327 E.01211
G1 X130.857 Y120.261 E.21947
G1 X130.322 Y120.261 E.01682
G1 X125.591 Y115.53 E.21041
G1 X125.248 Y115.722 E.01236
G1 X129.787 Y120.261 E.20188
G1 X129.252 Y120.261 E.01682
G1 X124.905 Y115.914 E.19335
G1 X124.553 Y116.097 E.01248
G1 X128.717 Y120.261 E.18522
G1 X128.182 Y120.261 E.01682
G1 X124.184 Y116.262 E.17785
G1 X123.815 Y116.428 E.01273
G1 X127.647 Y120.261 E.17047
G1 X127.113 Y120.261 E.01682
G1 X123.433 Y116.582 E.16364
G1 X123.038 Y116.721 E.01319
G1 X126.578 Y120.261 E.15745
G1 X126.043 Y120.261 E.01682
G1 X122.642 Y116.86 E.15126
G1 X122.228 Y116.981 E.01356
G1 X125.508 Y120.261 E.14588
G1 X124.973 Y120.261 E.01682
G1 X121.803 Y117.091 E.14099
G1 X121.378 Y117.201 E.01381
G1 X124.438 Y120.261 E.13611
G1 X123.903 Y120.261 E.01682
G1 X120.923 Y117.281 E.13254
G1 X120.467 Y117.359 E.01457
G1 X123.368 Y120.261 E.12906
G1 X122.833 Y120.261 E.01682
G1 X119.992 Y117.419 E.12639
G1 X119.5 Y117.462 E.01553
G1 X122.299 Y120.261 E.12448
G1 X121.764 Y120.261 E.01682
G1 X119.002 Y117.5 E.12281
G1 X118.469 Y117.501 E.01678
G1 X121.229 Y120.261 E.12275
G1 X120.694 Y120.261 E.01682
G1 X117.935 Y117.502 E.1227
G1 X117.355 Y117.457 E.01831
G1 X120.159 Y120.261 E.12473
G1 X119.624 Y120.261 E.01682
G1 X116.77 Y117.407 E.12694
G1 X116.135 Y117.307 E.02021
G1 X119.089 Y120.261 E.13139
G1 X118.554 Y120.261 E.01682
G1 X115.487 Y117.194 E.13641
G1 X114.764 Y117.006 E.0235
G1 X118.019 Y120.261 E.14478
G1 X117.484 Y120.261 E.01682
G1 X113.99 Y116.766 E.15544
G1 X113.142 Y116.453 E.02843
G1 X116.95 Y120.261 E.16937
G1 X116.404 Y120.25 E.01717
G1 X111.722 Y115.569 E.20821
M204 S1000
;WIPE_START
G1 F8640
G1 X114.05 Y117.896 E-.76
;WIPE_END
G1 E-.04 F2100
G1 Z.6 F720
G1 X104.718 Y98.402 F10800
G1 Z.2 F720
G1 E.8 F2100
M204 S800
G1 F1200
G1 X104.056 Y97.739 E.02948
G1 X103.521 Y97.739 E.01682
G1 X104.549 Y98.767 E.04572
G1 X104.549 Y99.302 E.01682
G1 X102.986 Y97.739 E.06952
G1 X102.451 Y97.739 E.01682
G1 X104.549 Y99.837 E.09331
G1 X104.549 Y100.372 E.01682
G1 X101.916 Y97.739 E.1171
G1 X101.801 Y97.739 E.0036
G1 X101.801 Y98.159 E.01322
G1 X104.549 Y100.907 E.1222
G1 X104.549 Y101.442 E.01682
G1 X101.801 Y98.694 E.1222
G1 X101.801 Y99.229 E.01682
G1 X104.549 Y101.977 E.1222
G1 X104.549 Y102.512 E.01682
G1 X101.801 Y99.764 E.12221
G1 X101.801 Y100.299 E.01682
G1 X104.549 Y103.047 E.12221
G1 X104.549 Y103.582 E.01682
G1 X101.801 Y100.834 E.12221
G1 X101.801 Y101.369 E.01682
G1 X104.571 Y104.138 E.12318
G1 X104.596 Y104.698 E.01763
G1 X101.801 Y101.904 E.1243
G1 X101.801 Y102.438 E.01682
G1 X104.664 Y105.301 E.12732
G1 X104.744 Y105.916 E.01951
G1 X101.801 Y102.973 E.13088
G1 X101.801 Y103.508 E.01682
G1 X104.883 Y106.59 E.13707
G1 X105.053 Y107.295 E.0228
